i_love_nvidia/cinematic.cube
# Created with create_lut.py
# Configuration: {"brightness":1.1,"contrast":1.3,"saturation":1.1,"temperature":5600.0,"tint":0.0,"highlight_rolloff":0.7,"shadow_lift":0.02,"black_point":0.002,"highlight_warmth":1.05,"shadow_coolness":0.95,"midtone_contrast":1.2,"gamma":0.42}
TITLE "Custom LUT"
LUT_3D_SIZE 8
DOMAIN_MIN 0.000000 0.000000 0.000000
DOMAIN_MAX 0.903226 0.903226 0.903226
0.121729 0.124441 0.127031
0.145681 0.123493 0.126043
0.223914 0.119376 0.121756
0.335947 0.110675 0.112705
0.467604 0.095586 0.097029
0.612295 0.070241 0.070712
0.766298 0.007358 0.000000
0.926995 0.000000 0.000000
0.120609 0.148694 0.125771
0.144694 0.147868 0.124778
0.223157 0.144295 0.120464
0.335307 0.136844 0.111350
0.466995 0.124295 0.095534
0.611667 0.104687 0.068836
0.765618 0.073280 0.000000
0.926239 0.000000 0.000000
0.115731 0.227583 0.120304
0.140421 0.226975 0.119284
0.219898 0.224363 0.114848
0.332559 0.219005 0.105441
0.464383 0.210284 0.088964
0.608971 0.197529 0.060354
0.762698 0.179850 0.000000
0.922988 0.155830 0.000000
0.105337 0.339163 0.108759
0.131457 0.338685 0.107672
0.213191 0.336636 0.102933
0.326937 0.332461 0.092778
0.459041 0.325751 0.074517
0.603454 0.316135 0.039447
0.756714 0.303243 0.000000
0.916320 0.286657 0.000000
0.086923 0.467227 0.088610
0.116164 0.466809 0.087365
0.202199 0.465020 0.081879
0.317828 0.461385 0.069765
0.450396 0.455565 0.045788
0.594511 0.447280 0.000000
0.746996 0.436276 0.000000
0.905475 0.422315 0.000000
0.053678 0.602732 0.052864
0.091518 0.602335 0.051032
0.185935 0.600635 0.042505
0.304617 0.597183 0.017581
0.437888 0.591662 0.000000
0.581545 0.583817 0.000000
0.732866 0.573426 0.000000
0.889666 0.560292 0.000000
0.000000 0.738965 0.000000
0.047130 0.738563 0.000000
0.162954 0.736846 0.000000
0.286607 0.733357 0.000000
0.420906 0.727780 0.000000
0.563892 0.719855 0.000000
0.713556 0.709361 0.000000
0.867987 0.696101 0.000000
0.000000 0.869626 0.000000
0.000000 0.869202 0.000000
0.130553 0.867390 0.000000
0.262902 0.863708 0.000000
0.398727 0.857820 0.000000
0.540761 0.849450 0.000000
0.688131 0.838358 0.000000
0.839323 0.824329 0.000000
0.120899 0.123580 0.152124
0.144965 0.122627 0.151260
0.223407 0.118487 0.147529
0.335576 0.109733 0.139755
0.467311 0.094530 0.126688
0.612048 0.068889 0.106324
0.766079 0.000000 0.073773
0.926791 0.000000 0.000000
0.119773 0.147950 0.150992
0.143975 0.147120 0.150125
0.222649 0.143534 0.146379
0.334936 0.136053 0.138571
0.466702 0.123445 0.125437
0.611419 0.103717 0.104931
0.765398 0.071992 0.071975
0.926035 0.000000 0.000000
0.114870 0.227054 0.146107
0.139687 0.226445 0.145226
0.219386 0.223828 0.141413
0.332187 0.218463 0.133453
0.464090 0.209728 0.120010
0.608724 0.196950 0.098839
0.762478 0.179233 0.063890
0.922784 0.155149 0.000000
0.104414 0.338772 0.135953
0.130688 0.338293 0.135036
0.212670 0.336243 0.131067
0.326563 0.332067 0.122744
0.458747 0.325353 0.108552
0.603206 0.315732 0.085684
0.756493 0.302832 0.044494
0.916115 0.286235 0.000000
0.085855 0.466914 0.118898
0.115324 0.466496 0.117908
0.201663 0.464707 0.113606
0.317450 0.461071 0.104492
0.450101 0.455251 0.088577
0.594262 0.446964 0.061183
0.746775 0.435958 0.000000
0.905269 0.421994 0.000000
0.052108 0.602463 0.092025
0.090515 0.602066 0.090859
0.185372 0.600366 0.085740
0.304234 0.596914 0.074559
0.437591 0.591393 0.053262
0.581296 0.583548 0.000000
0.732645 0.573157 0.000000
0.889458 0.560022 0.000000
0.000000 0.738720 0.044653
0.045426 0.738319 0.042644
0.162345 0.736601 0.032988
0.286215 0.733113 0.000000
0.420608 0.727535 0.000000
0.563642 0.719611 0.000000
0.713333 0.709117 0.000000
0.867779 0.695858 0.000000
0.000000 0.869393 0.000000
0.000000 0.868969 0.000000
0.129852 0.867157 0.000000
0.262498 0.863476 0.000000
0.398426 0.857588 0.000000
0.540510 0.849217 0.000000
0.687907 0.838126 0.000000
0.839112 0.824097 0.000000
0.117296 0.119841 0.234062
0.141868 0.118865 0.233417
0.221229 0.114623 0.230646
0.333987 0.105628 0.224970
0.466056 0.089900 0.215752
0.610989 0.062838 0.202313
0.765137 0.000000 0.183770
0.925918 0.000000 0.158723
0.116145 0.144731 0.233128
0.140863 0.143888 0.232482
0.220467 0.140242 0.229708
0.333345 0.132625 0.224026
0.465447 0.119753 0.214797
0.610361 0.099482 0.201338
0.764457 0.066253 0.182761
0.925161 0.000000 0.157648
0.111126 0.224778 0.229123
0.136509 0.224165 0.228473
0.217186 0.221532 0.225687
0.330592 0.216131 0.219978
0.462833 0.207336 0.210699
0.607665 0.194458 0.197153
0.761536 0.176579 0.178422
0.921909 0.152213 0.153019
0.100388 0.337096 0.220950
0.127356 0.336617 0.220294
0.210433 0.334562 0.217480
0.324958 0.330377 0.211710
0.457488 0.323648 0.202319
0.602145 0.314004 0.188580
0.755550 0.301070 0.169505
0.915238 0.284424 0.143436
0.081158 0.465573 0.207758
0.111673 0.465155 0.207091
0.199357 0.463365 0.204225
0.315829 0.459727 0.198340
0.448837 0.453903 0.188740
0.593200 0.445610 0.174634
0.745829 0.434597 0.154896
0.904388 0.420622 0.127497
0.044895 0.601312 0.188681
0.086119 0.600915 0.187993
0.182951 0.599215 0.185032
0.302589 0.595762 0.178939
0.436321 0.590241 0.168955
0.580230 0.582395 0.154162
0.731695 0.572003 0.133139
0.888573 0.558867 0.102953
0.000000 0.737675 0.162555
0.037436 0.737273 0.161826
0.159722 0.735556 0.158685
0.284533 0.732068 0.152192
0.419329 0.726491 0.141452
0.562572 0.718567 0.125256
0.712379 0.708074 0.101383
0.866886 0.694815 0.063486
0.000000 0.868397 0.127174
0.000000 0.867974 0.126355
0.126817 0.866162 0.122813
0.260762 0.862481 0.115406
0.397135 0.856593 0.102851
0.539436 0.848224 0.082884
0.686947 0.837133 0.048663
0.838210 0.823106 0.000000
0.109687 0.111947 0.351462
0.135406 0.110919 0.350940
0.216755 0.106438 0.348706
0.330743 0.096870 0.344160
0.463502 0.079844 0.336865
0.608837 0.048754 0.326443
0.763224 0.000000 0.312526
0.924143 0.000000 0.294718
0.108478 0.138016 0.350587
0.134369 0.137143 0.350065
0.215984 0.133364 0.347831
0.330099 0.125442 0.343285
0.462893 0.111963 0.335991
0.608209 0.090401 0.325569
0.762544 0.053107 0.311651
0.923386 0.000000 0.293840
0.103190 0.220105 0.346844
0.129865 0.219484 0.346322
0.212666 0.216816 0.344089
0.327337 0.211340 0.339543
0.460276 0.202414 0.332250
0.605511 0.189323 0.321828
0.759621 0.171094 0.307907
0.920131 0.146111 0.290084
0.091778 0.333678 0.339248
0.120363 0.333196 0.338726
0.205831 0.331132 0.336494
0.321683 0.326928 0.331950
0.454925 0.320167 0.324657
0.599989 0.310475 0.314233
0.753632 0.297472 0.300302
0.913456 0.280725 0.282453
0.070854 0.462846 0.327118
0.103944 0.462427 0.326597
0.194611 0.460635 0.324365
0.312521 0.456992 0.319822
0.446265 0.451160 0.312527
0.591039 0.442856 0.302095
0.743906 0.431826 0.288140
0.902598 0.417829 0.270237
0.025844 0.598974 0.309909
0.076570 0.598576 0.309387
0.177958 0.596876 0.307154
0.299230 0.593423 0.302607
0.433736 0.587900 0.295303
0.578063 0.580053 0.284846
0.729765 0.569658 0.270838
0.886773 0.556519 0.252826
0.000000 0.735550 0.287134
0.012685 0.735149 0.286611
0.154288 0.733432 0.284372
0.281098 0.729944 0.279811
0.416725 0.724368 0.272476
0.560398 0.716445 0.261959
0.710440 0.705954 0.247837
0.865071 0.692698 0.229608
0.000000 0.866376 0.258294
0.000000 0.865952 0.257767
0.120469 0.864141 0.255511
0.257212 0.860460 0.250909
0.394506 0.854574 0.243498
0.537252 0.846206 0.232844
0.684997 0.835117 0.218477
0.836377 0.821092 0.199805
0.096541 0.098306 0.489644
0.124530 0.097169 0.489174
0.209454 0.092182 0.487160
0.325512 0.081352 0.483071
0.459403 0.061143 0.476535
0.605389 0.010246 0.467255
0.760162 0.000000 0.454974
0.921303 0.000000 0.439463
0.095209 0.126716 0.488727
0.123429 0.125786 0.488256
0.208667 0.121747 0.486243
0.324864 0.113229 0.482156
0.458792 0.098519 0.475623
0.604760 0.074097 0.466346
0.759481 0.022321 0.454069
0.920545 0.000000 0.438563
0.089348 0.212483 0.484804
0.118636 0.211848 0.484334
0.205285 0.209120 0.482324
0.322086 0.203514 0.478243
0.456170 0.194361 0.471720
0.602060 0.180894 0.462457
0.756556 0.162039 0.450198
0.917287 0.135926 0.434715
0.076435 0.328169 0.476849
0.108448 0.327684 0.476381
0.198308 0.325605 0.474377
0.316400 0.321369 0.470309
0.450810 0.314556 0.463806
0.596533 0.304784 0.454572
0.750562 0.291663 0.442350
0.910605 0.274747 0.426912
0.051109 0.458471 0.464167
0.090510 0.458051 0.463700
0.186834 0.456256 0.461707
0.307182 0.452605 0.457659
0.442135 0.446760 0.451188
0.587576 0.438436 0.441998
0.740828 0.427379 0.429833
0.899735 0.413345 0.414465
0.000000 0.595230 0.446219
0.058825 0.594832 0.445756
0.169743 0.593131 0.443777
0.293806 0.589677 0.439756
0.429584 0.584153 0.433329
0.574591 0.576303 0.424200
0.726676 0.565905 0.412114
0.883892 0.552760 0.396841
0.000000 0.732153 0.422574
0.000000 0.731752 0.422116
0.145278 0.730035 0.420153
0.275547 0.726549 0.416168
0.412543 0.720974 0.409796
0.556913 0.713053 0.400743
0.707337 0.702565 0.388755
0.862169 0.689311 0.373597
0.000000 0.863144 0.392865
0.000000 0.862720 0.392411
0.109730 0.860909 0.390469
0.251466 0.857230 0.386524
0.390285 0.851345 0.380216
0.533752 0.842979 0.371251
0.681876 0.831894 0.359371
0.833445 0.817872 0.344339
0.074822 0.075742 0.641919
0.107610 0.074340 0.641458
0.198736 0.068091 0.639490
0.317981 0.053712 0.635494
0.453542 0.018258 0.629116
0.600475 0.000000 0.620073
0.755805 0.000000 0.608136
0.917264 0.000000 0.593110
0.073197 0.109134 0.640900
0.106384 0.108091 0.640439
0.197926 0.103540 0.638471
0.317328 0.093799 0.634478
0.452930 0.076348 0.628102
0.599846 0.043627 0.619063
0.755122 0.000000 0.607130
0.916504 0.000000 0.592110
0.065899 0.201304 0.636542
0.101018 0.200647 0.636083
0.194437 0.197821 0.634118
0.314526 0.192006 0.630131
0.450302 0.182481 0.623766
0.597142 0.168392 0.614742
0.752194 0.148474 0.602829
0.913241 0.120342 0.587834
0.048612 0.320248 0.627703
0.089409 0.319758 0.627245
0.187231 0.317656 0.625287
0.308790 0.313372 0.621313
0.444927 0.306479 0.614970
0.591609 0.296585 0.605976
0.746192 0.283285 0.594104
0.906549 0.266110 0.579159
0.000000 0.452226 0.613601
0.067958 0.451805 0.613145
0.175340 0.450003 0.611198
0.299488 0.446341 0.607246
0.436230 0.440476 0.600936
0.582642 0.432124 0.591991
0.736448 0.421027 0.580182
0.895663 0.406938 0.565318
0.000000 0.589901 0.593627
0.018614 0.589503 0.593175
0.157515 0.587802 0.591242
0.285982 0.584346 0.587320
0.423647 0.578819 0.581058
0.569643 0.570965 0.572181
0.722281 0.560561 0.560460
0.879796 0.547409 0.545707
0.000000 0.727324 0.567283
0.000000 0.726923 0.566836
0.131668 0.725207 0.564922
0.267527 0.721722 0.561038
0.406563 0.716149 0.554838
0.551948 0.708231 0.546047
0.702921 0.697746 0.534441
0.858040 0.684497 0.519830
0.000000 0.858552 0.534142
0.000000 0.858129 0.533700
0.092833 0.856319 0.531809
0.243145 0.852641 0.527972
0.384244 0.846758 0.521846
0.528765 0.838396 0.513160
0.677434 0.827315 0.501690
0.829275 0.813299 0.487249
0.032416 0.031049 0.804656
0.081112 0.028052 0.804182
0.183827 0.009123 0.802155
0.307821 0.000000 0.798043
0.445716 0.000000 0.791478
0.593942 0.000000 0.782174
0.750021 0.000000 0.769894
0.911907 0.000000 0.754443
0.029116 0.081541 0.803498
0.079589 0.080228 0.803024
0.182979 0.074407 0.800998
0.307160 0.061301 0.796887
0.445102 0.033217 0.790325
0.593311 0.000000 0.781023
0.749338 0.000000 0.768747
0.911146 0.000000 0.753302
0.006999 0.185770 0.798546
0.072800 0.185077 0.798073
0.179320 0.182093 0.796050
0.304323 0.175939 0.791945
0.442465 0.165805 0.785392
0.590603 0.150673 0.776103
0.746404 0.128890 0.763844
0.907876 0.096837 0.748420
0.000000 0.309577 0.788497
0.057188 0.309079 0.788025
0.171741 0.306944 0.786008
0.298514 0.302591 0.781914
0.437071 0.295582 0.775380
0.585062 0.285509 0.766118
0.740394 0.271947 0.753894
0.901170 0.254389 0.738513
0.000000 0.443900 0.772449
0.018328 0.443477 0.771980
0.159160 0.441668 0.769972
0.289090 0.437989 0.765896
0.428343 0.432098 0.759391
0.576081 0.423705 0.750171
0.730635 0.412551 0.738002
0.890262 0.398383 0.722690
0.000000 0.582827 0.749689
0.000000 0.582429 0.749223
0.140084 0.580727 0.747227
0.275393 0.577268 0.743178
0.415716 0.571738 0.736713
0.563064 0.563878 0.727551
0.716447 0.553466 0.715457
0.874364 0.540303 0.700241
0.000000 0.720926 0.719614
0.000000 0.720525 0.719151
0.111715 0.718810 0.717172
0.256649 0.715326 0.713155
0.398569 0.709756 0.706743
0.545345 0.701842 0.697654
0.697061 0.691361 0.685657
0.852566 0.678118 0.670561
0.000000 0.852474 0.681688
0.000000 0.852051 0.681229
0.065533 0.850241 0.679269
0.231817 0.846565 0.675292
0.376167 0.840686 0.668941
0.522132 0.832328 0.659940
0.671540 0.821253 0.648057
0.823745 0.807244 0.633103
0.000000 0.000000 0.975458
0.028612 0.000000 0.974955
0.163537 0.000000 0.972805
0.294646 0.000000 0.968441
0.435716 0.000000 0.961473
0.585640 0.000000 0.951595
0.742690 0.000000 0.938552
0.905126 0.000000 0.922133
0.000000 0.025273 0.974135
0.024914 0.021666 0.973633
0.162624 0.000000 0.971483
0.293974 0.000000 0.967120
0.435098 0.000000 0.960155
0.585008 0.000000 0.950278
0.742006 0.000000 0.937239
0.904363 0.000000 0.920824
0.000000 0.164645 0.968480
0.000000 0.163892 0.967977
0.158678 0.160645 0.965830
0.291088 0.153913 0.961472
0.432449 0.142719 0.954514
0.582295 0.125682 0.944648
0.739067 0.100148 0.931622
0.901085 0.057786 0.915224
0.000000 0.295768 0.956996
0.000000 0.295259 0.956495
0.150460 0.293077 0.954352
0.285175 0.288625 0.950003
0.427030 0.281448 0.943060
0.576742 0.271120 0.933215
0.733045 0.257177 0.920216
0.894361 0.239055 0.903852
0.000000 0.433284 0.938644
0.000000 0.432859 0.938144
0.136663 0.431039 0.936009
0.275575 0.427337 0.931675
0.418261 0.421408 0.924754
0.567745 0.412961 0.914942
0.723268 0.401728 0.901986
0.883426 0.387453 0.885676
0.000000 0.573860 0.912584
0.000000 0.573462 0.912087
0.115233 0.571758 0.909961
0.261602 0.568296 0.905647
0.405573 0.562760 0.898758
0.554704 0.554892 0.888991
0.709055 0.544469 0.876093
0.867489 0.531290 0.859855
0.000000 0.712836 0.878093
0.000000 0.712435 0.877599
0.081361 0.710721 0.875485
0.242432 0.707239 0.871196
0.388342 0.701672 0.864347
0.536955 0.693762 0.854635
0.689636 0.683288 0.841809
0.845638 0.670051 0.825660
0.000000 0.844795 0.834505
0.000000 0.844373 0.834014
0.000000 0.842564 0.831915
0.216927 0.838891 0.827654
0.365824 0.833016 0.820850
0.513705 0.824663 0.811201
0.664073 0.813595 0.798457
0.816748 0.799595 0.782408
