i_love_nvidia/cinematic.cube
# Created with create_lut.py
# Configuration: {"brightness":1.1,"contrast":1.3,"saturation":1.1,"temperature":5600.0,"tint":0.0,"highlight_rolloff":0.7,"shadow_lift":0.02,"black_point":0.002,"highlight_warmth":1.05,"shadow_coolness":0.95,"midtone_contrast":1.2,"gamma":0.42}
TITLE "Custom LUT"
LUT_3D_SIZE 32
0.121729 0.124441 0.127031
0.122656 0.124407 0.126996
0.126556 0.124262 0.126844
0.134185 0.123966 0.126536
0.145681 0.123493 0.126043
0.160818 0.122818 0.125340
0.179193 0.121920 0.124406
0.200361 0.120780 0.123218
0.223914 0.119376 0.121756
0.249506 0.117687 0.119998
0.276854 0.115691 0.117921
0.305729 0.113363 0.115500
0.335947 0.110675 0.112705
0.367357 0.107596 0.109504
0.399836 0.104087 0.105858
0.433281 0.100103 0.101719
0.467604 0.095586 0.097029
0.502729 0.090463 0.091710
0.538591 0.084635 0.085661
0.575130 0.077963 0.078734
0.612295 0.070241 0.070712
0.650037 0.061131 0.061233
0.688312 0.049996 0.049600
0.727078 0.035286 0.034045
0.766298 0.007358 0.000000
0.805935 0.000000 0.000000
0.845952 0.000000 0.000000
0.886317 0.000000 0.000000
0.926995 0.000000 0.000000
0.967956 0.000000 0.000000
1.000000 0.000000 0.000000
1.000000 0.000000 0.000000
0.121689 0.125380 0.126986
0.122616 0.125346 0.126950
0.126517 0.125202 0.126799
0.134147 0.124908 0.126491
0.145646 0.124437 0.125998
0.160785 0.123766 0.125295
0.179162 0.122874 0.124360
0.200332 0.121741 0.123172
0.223887 0.120345 0.121710
0.249481 0.118667 0.119952
0.276830 0.116684 0.117874
0.305706 0.114372 0.115452
0.335924 0.111703 0.112656
0.367335 0.108647 0.109455
0.399814 0.105166 0.105807
0.433259 0.101215 0.101667
0.467582 0.096739 0.096976
0.502707 0.091668 0.091655
0.538569 0.085905 0.085602
0.575108 0.079318 0.078673
0.612272 0.071713 0.070646
0.650014 0.062775 0.061158
0.688288 0.051925 0.049513
0.727055 0.037821 0.033928
0.766274 0.014319 0.000000
0.805910 0.000000 0.000000
0.845927 0.000000 0.000000
0.886291 0.000000 0.000000
0.926968 0.000000 0.000000
0.967928 0.000000 0.000000
1.000000 0.000000 0.000000
1.000000 0.000000 0.000000
0.121517 0.129331 0.126793
0.122445 0.129298 0.126757
0.126350 0.129157 0.126606
0.133987 0.128870 0.126298
0.145494 0.128411 0.125804
0.160644 0.127757 0.125100
0.179030 0.126886 0.124165
0.200208 0.125781 0.122975
0.223771 0.124420 0.121512
0.249370 0.122786 0.119752
0.276725 0.120855 0.117672
0.305604 0.118607 0.115247
0.335826 0.116015 0.112449
0.367239 0.113050 0.109243
0.399720 0.109679 0.105591
0.433166 0.105861 0.101446
0.467489 0.101548 0.096747
0.502614 0.096677 0.091417
0.538475 0.091167 0.085353
0.575013 0.084908 0.078408
0.612176 0.077745 0.070360
0.649916 0.069437 0.060840
0.688188 0.059580 0.049138
0.726953 0.047370 0.033420
0.766170 0.030579 0.000000
0.805803 0.000000 0.000000
0.845817 0.000000 0.000000
0.886178 0.000000 0.000000
0.926852 0.000000 0.000000
0.967808 0.000000 0.000000
1.000000 0.000000 0.000000
1.000000 0.000000 0.000000
0.121168 0.137057 0.126400
0.122098 0.137026 0.126365
0.126011 0.136891 0.126213
0.133662 0.136617 0.125904
0.145187 0.136177 0.125410
0.160356 0.135552 0.124705
0.178761 0.134721 0.123767
0.199957 0.133665 0.122576
0.223534 0.132368 0.121109
0.249147 0.130810 0.119346
0.276511 0.128974 0.117262
0.305399 0.126838 0.114832
0.335626 0.124379 0.112027
0.367044 0.121575 0.108813
0.399527 0.118394 0.105152
0.432975 0.114806 0.100995
0.467299 0.110768 0.096281
0.502424 0.106233 0.090933
0.538283 0.101139 0.084846
0.574820 0.095406 0.077869
0.611980 0.088926 0.069776
0.649717 0.081545 0.060189
0.687986 0.073031 0.048369
0.726745 0.062997 0.032369
0.765958 0.050691 0.000000
0.805585 0.034149 0.000000
0.845594 0.000000 0.000000
0.885948 0.000000 0.000000
0.926616 0.000000 0.000000
0.967565 0.000000 0.000000
1.000000 0.000000 0.000000
1.000000 0.000000 0.000000
0.120609 0.148694 0.125771
0.121542 0.148665 0.125735
0.125467 0.148538 0.125583
0.133140 0.148280 0.125274
0.144694 0.147868 0.124778
0.159895 0.147280 0.124070
0.178331 0.146500 0.123130
0.199555 0.145511 0.121935
0.223157 0.144295 0.120464
0.248789 0.142838 0.118695
0.276169 0.141122 0.116604
0.305070 0.139131 0.114165
0.335307 0.136844 0.111350
0.366731 0.134242 0.108124
0.399220 0.131301 0.104447
0.432670 0.127996 0.100271
0.466995 0.124295 0.095534
0.502119 0.120163 0.090156
0.537977 0.115556 0.084030
0.574511 0.110421 0.077002
0.611667 0.104687 0.068836
0.649398 0.098264 0.059138
0.687661 0.091026 0.047121
0.726414 0.082793 0.030630
0.765618 0.073280 0.000000
0.805238 0.061995 0.000000
0.845237 0.047903 0.000000
0.885581 0.027736 0.000000
0.926239 0.000000 0.000000
0.967176 0.000000 0.000000
1.000000 0.000000 0.000000
1.000000 0.000000 0.000000
0.119811 0.164003 0.124875
0.120748 0.163976 0.124839
0.124692 0.163858 0.124686
0.132397 0.163619 0.124375
0.143993 0.163235 0.123877
0.159239 0.162690 0.123167
0.177719 0.161966 0.122222
0.198983 0.161049 0.121022
0.222619 0.159923 0.119544
0.248280 0.158575 0.117766
0.275683 0.156991 0.115665
0.304602 0.155154 0.113214
0.334853 0.153051 0.110384
0.366287 0.150664 0.107140
0.398783 0.147974 0.103441
0.432237 0.144963 0.099237
0.466563 0.141606 0.094466
0.501687 0.137878 0.089045
0.537542 0.133749 0.082863
0.574071 0.129183 0.075759
0.611221 0.124135 0.067485
0.648946 0.118551 0.057620
0.687200 0.112364 0.045302
0.725943 0.105480 0.028013
0.765136 0.097777 0.000000
0.804743 0.089075 0.000000
0.844729 0.079098 0.000000
0.885060 0.067370 0.000000
0.925702 0.052931 0.000000
0.966624 0.032996 0.000000
1.000000 0.000000 0.000000
1.000000 0.000000 0.000000
0.118749 0.182561 0.123683
0.119692 0.182535 0.123647
0.123660 0.182426 0.123493
0.131408 0.182205 0.123180
0.143060 0.181851 0.122679
0.158368 0.181347 0.121965
0.176907 0.180679 0.121015
0.198224 0.179832 0.119807
0.221906 0.178795 0.118320
0.247605 0.177554 0.116532
0.275039 0.176096 0.114417
0.303982 0.174411 0.111949
0.334251 0.172484 0.109098
0.365699 0.170301 0.105829
0.398204 0.167849 0.102099
0.431663 0.165112 0.097858
0.465991 0.162072 0.093041
0.501114 0.158711 0.087560
0.536966 0.155007 0.081300
0.573489 0.150936 0.074091
0.610631 0.146469 0.065666
0.648346 0.141573 0.055563
0.686588 0.136206 0.042803
0.725318 0.130319 0.024209
0.764497 0.123850 0.000000
0.804088 0.116715 0.000000
0.844056 0.108807 0.000000
0.884368 0.099972 0.000000
0.924990 0.089982 0.000000
0.965891 0.078470 0.000000
1.000000 0.064760 0.000000
1.000000 0.047294 0.000000
0.117397 0.203899 0.122168
0.118349 0.203875 0.122132
0.122348 0.203775 0.121977
0.130152 0.203570 0.121662
0.141877 0.203243 0.121157
0.157263 0.202777 0.120438
0.175878 0.202160 0.119480
0.197263 0.201379 0.118263
0.221004 0.200422 0.116765
0.246751 0.199279 0.114961
0.274224 0.197938 0.112828
0.303198 0.196389 0.110338
0.333490 0.194620 0.107461
0.364955 0.192621 0.104159
0.397471 0.190380 0.100390
0.430937 0.187885 0.096099
0.465268 0.185121 0.091220
0.500389 0.182076 0.085661
0.536237 0.178733 0.079297
0.572752 0.175075 0.071946
0.609885 0.171082 0.063315
0.647587 0.166733 0.052881
0.685814 0.162002 0.039474
0.724528 0.156858 0.018554
0.763688 0.151266 0.000000
0.803259 0.145183 0.000000
0.843205 0.138554 0.000000
0.883493 0.131313 0.000000
0.924090 0.123370 0.000000
0.964964 0.114604 0.000000
1.000000 0.104847 0.000000
1.000000 0.093840 0.000000
0.115731 0.227583 0.120304
0.116692 0.227562 0.120268
0.120731 0.227468 0.120111
0.128606 0.227279 0.119794
0.140421 0.226975 0.119284
0.155905 0.226544 0.118558
0.174615 0.225972 0.117591
0.196086 0.225248 0.116362
0.219898 0.224363 0.114848
0.245705 0.223305 0.113026
0.273227 0.222066 0.110870
0.302238 0.220636 0.108352
0.332559 0.219005 0.105441
0.364045 0.217164 0.102097
0.396575 0.215104 0.098277
0.430049 0.212814 0.093923
0.464383 0.210284 0.088964
0.499503 0.207503 0.083302
0.535345 0.204459 0.076802
0.571851 0.201139 0.069262
0.608971 0.197529 0.060354
0.646658 0.193613 0.049459
0.684868 0.189375 0.035080
0.723561 0.184795 0.008444
0.762698 0.179850 0.000000
0.802244 0.174514 0.000000
0.842163 0.168758 0.000000
0.882422 0.162544 0.000000
0.922988 0.155830 0.000000
0.963829 0.148559 0.000000
1.000000 0.140663 0.000000
1.000000 0.132051 0.000000
0.113723 0.253239 0.118063
0.114697 0.253219 0.118026
0.118785 0.253132 0.117868
0.126746 0.252955 0.117547
0.138674 0.252672 0.117031
0.154278 0.252270 0.116296
0.173104 0.251737 0.115318
0.194677 0.251063 0.114075
0.218577 0.250239 0.112542
0.244456 0.249255 0.110696
0.272036 0.248102 0.108511
0.301093 0.246774 0.105958
0.331448 0.245260 0.103004
0.362959 0.243554 0.099608
0.395506 0.241646 0.095722
0.428990 0.239528 0.091288
0.463327 0.237193 0.086226
0.498445 0.234630 0.080432
0.534280 0.231831 0.073755
0.570776 0.228785 0.065966
0.607881 0.225482 0.056680
0.645549 0.221911 0.045128
0.683738 0.218059 0.029188
0.722406 0.213912 0.000000
0.761516 0.209456 0.000000
0.801032 0.204674 0.000000
0.840919 0.199546 0.000000
0.881143 0.194051 0.000000
0.921672 0.188163 0.000000
0.962473 0.181853 0.000000
1.000000 0.175084 0.000000
1.000000 0.167814 0.000000
0.111344 0.280554 0.115415
0.112333 0.280535 0.115377
0.116481 0.280453 0.115217
0.124550 0.280287 0.114891
0.136613 0.280022 0.114368
0.152363 0.279644 0.113623
0.171326 0.279145 0.112631
0.193022 0.278513 0.111369
0.217027 0.277740 0.109813
0.242992 0.276818 0.107938
0.270640 0.275739 0.105717
0.299751 0.274495 0.103120
0.330147 0.273080 0.100112
0.361687 0.271486 0.096650
0.394254 0.269705 0.092683
0.427749 0.267730 0.088146
0.462090 0.265555 0.082954
0.497206 0.263171 0.076988
0.533033 0.260572 0.070080
0.569516 0.257748 0.061959
0.606604 0.254693 0.052149
0.644251 0.251396 0.039619
0.682414 0.247849 0.020749
0.721054 0.244041 0.000000
0.760132 0.239962 0.000000
0.799612 0.235600 0.000000
0.839461 0.230942 0.000000
0.879645 0.225973 0.000000
0.920130 0.220678 0.000000
0.960885 0.215037 0.000000
1.000000 0.209031 0.000000
1.000000 0.202633 0.000000
0.108562 0.309267 0.112326
0.109568 0.309249 0.112288
0.113791 0.309172 0.112125
0.121988 0.309015 0.111793
0.134216 0.308765 0.111262
0.150139 0.308408 0.110504
0.169267 0.307936 0.109494
0.191109 0.307339 0.108209
0.215236 0.306610 0.106624
0.241302 0.305740 0.104713
0.269030 0.304722 0.102448
0.298203 0.303550 0.099797
0.328647 0.302216 0.096721
0.360221 0.300714 0.093176
0.392810 0.299038 0.089106
0.426319 0.297182 0.084439
0.460665 0.295138 0.079079
0.495778 0.292901 0.072892
0.531596 0.290464 0.065676
0.568064 0.287821 0.057100
0.605131 0.284964 0.046536
0.642753 0.281887 0.032419
0.680887 0.278582 0.001540
0.719493 0.275042 0.000000
0.758534 0.271258 0.000000
0.797974 0.267221 0.000000
0.837779 0.262922 0.000000
0.877915 0.258351 0.000000
0.918350 0.253496 0.000000
0.959051 0.248346 0.000000
0.999988 0.242886 0.000000
1.000000 0.237102 0.000000
0.105337 0.339163 0.108759
0.106366 0.339146 0.108720
0.110678 0.339073 0.108553
0.119032 0.338923 0.108215
0.131457 0.338685 0.107672
0.147587 0.338346 0.106898
0.166909 0.337897 0.105867
0.188921 0.337329 0.104554
0.213191 0.336636 0.102933
0.239373 0.335809 0.100978
0.267195 0.334842 0.098658
0.296439 0.333728 0.095938
0.326937 0.332461 0.092778
0.358551 0.331036 0.089129
0.391166 0.329447 0.084928
0.424690 0.327687 0.080094
0.459041 0.325751 0.074517
0.494151 0.323634 0.068036
0.529958 0.321329 0.060401
0.566409 0.318832 0.051179
0.603454 0.316135 0.039447
0.641047 0.313235 0.022207
0.679147 0.310123 0.000000
0.717715 0.306795 0.000000
0.756714 0.303243 0.000000
0.796107 0.299460 0.000000
0.835862 0.295441 0.000000
0.875943 0.291175 0.000000
0.916320 0.286657 0.000000
0.956960 0.281876 0.000000
0.997832 0.276823 0.000000
1.000000 0.271488 0.000000
0.101625 0.370057 0.104667
0.102681 0.370041 0.104627
0.107104 0.369970 0.104457
0.115647 0.369827 0.104110
0.128308 0.369599 0.103554
0.144683 0.369274 0.102760
0.164233 0.368844 0.101702
0.186443 0.368301 0.100354
0.210879 0.367637 0.098689
0.237195 0.366845 0.096678
0.265123 0.365920 0.094289
0.294450 0.364854 0.091483
0.325010 0.363643 0.088217
0.356668 0.362281 0.084435
0.389313 0.360762 0.080065
0.422853 0.359081 0.075014
0.457211 0.357233 0.069147
0.492317 0.355212 0.062265
0.528113 0.353015 0.054037
0.564544 0.350635 0.043830
0.601562 0.348068 0.030024
0.639123 0.345309 0.000000
0.677185 0.342352 0.000000
0.715710 0.339192 0.000000
0.754660 0.335824 0.000000
0.794001 0.332242 0.000000
0.833698 0.328441 0.000000
0.873718 0.324414 0.000000
0.914030 0.320155 0.000000
0.954601 0.315657 0.000000
0.995399 0.310913 0.000000
1.000000 0.305916 0.000000
0.097369 0.401790 0.099996
0.098460 0.401775 0.099955
0.103017 0.401707 0.099780
0.111791 0.401569 0.099422
0.124736 0.401349 0.098849
0.141402 0.401036 0.098031
0.161219 0.400621 0.096939
0.183660 0.400098 0.095548
0.208286 0.399458 0.093827
0.234756 0.398695 0.091746
0.262805 0.397803 0.089268
0.292226 0.396777 0.086354
0.322856 0.395611 0.082950
0.354564 0.394300 0.078995
0.387242 0.392838 0.074403
0.420802 0.391221 0.069060
0.455166 0.389443 0.062795
0.490268 0.387502 0.055340
0.526049 0.385390 0.046208
0.562458 0.383105 0.034302
0.599447 0.380642 0.015142
0.636971 0.377996 0.000000
0.674991 0.375162 0.000000
0.713467 0.372136 0.000000
0.752363 0.368914 0.000000
0.791644 0.365490 0.000000
0.831277 0.361860 0.000000
0.871229 0.358019 0.000000
0.911467 0.353961 0.000000
0.951960 0.349682 0.000000
0.992676 0.345175 0.000000
1.000000 0.340436 0.000000
0.092500 0.434222 0.094675
0.093633 0.434207 0.094633
0.098358 0.434141 0.094451
0.107415 0.434008 0.094080
0.120704 0.433794 0.093485
0.137715 0.433491 0.092636
0.157846 0.433089 0.091502
0.180552 0.432581 0.090054
0.205398 0.431960 0.088262
0.232043 0.431221 0.086090
0.260229 0.430357 0.083500
0.289756 0.429362 0.080442
0.320465 0.428232 0.076858
0.352229 0.426961 0.072671
0.384945 0.425545 0.067777
0.418526 0.423979 0.062024
0.452897 0.422259 0.055180
0.487994 0.420380 0.046837
0.523760 0.418337 0.036136
0.560144 0.416128 0.020261
0.597100 0.413747 0.000000
0.634583 0.411190 0.000000
0.672554 0.408454 0.000000
0.710976 0.405533 0.000000
0.749812 0.402426 0.000000
0.789027 0.399126 0.000000
0.828588 0.395630 0.000000
0.868463 0.391933 0.000000
0.908619 0.388032 0.000000
0.949025 0.383922 0.000000
0.989650 0.379598 0.000000
1.000000 0.375056 0.000000
0.086923 0.467227 0.088610
0.088111 0.467212 0.088565
0.093048 0.467147 0.088375
0.102458 0.467017 0.087987
0.116164 0.466809 0.087365
0.133588 0.466513 0.086475
0.154087 0.466121 0.085285
0.177103 0.465625 0.083765
0.202199 0.465020 0.081879
0.229043 0.464299 0.079589
0.257385 0.463457 0.076846
0.287030 0.462487 0.073596
0.317828 0.461385 0.069765
0.349655 0.460147 0.065254
0.382412 0.458767 0.059924
0.416017 0.457241 0.053559
0.450396 0.455565 0.045788
0.485487 0.453735 0.035850
0.521236 0.451747 0.021424
0.557593 0.449597 0.000000
0.594511 0.447280 0.000000
0.631949 0.444793 0.000000
0.669867 0.442133 0.000000
0.708228 0.439295 0.000000
0.746996 0.436276 0.000000
0.786138 0.433073 0.000000
0.825620 0.429680 0.000000
0.865409 0.426096 0.000000
0.905475 0.422315 0.000000
0.945784 0.418335 0.000000
0.986308 0.414150 0.000000
1.000000 0.409759 0.000000
0.080510 0.500686 0.081669
0.081769 0.500672 0.081622
0.086980 0.500609 0.081420
0.096838 0.500481 0.081010
0.111061 0.500277 0.080350
0.128983 0.499986 0.079406
0.149915 0.499602 0.078143
0.173289 0.499116 0.076524
0.198672 0.498523 0.074511
0.225743 0.497816 0.072056
0.254260 0.496990 0.069103
0.284039 0.496040 0.065580
0.314935 0.494960 0.061390
0.346832 0.493746 0.056395
0.379636 0.492394 0.050380
0.413266 0.490899 0.042978
0.447653 0.489258 0.033420
0.482739 0.487465 0.019261
0.518468 0.485518 0.000000
0.554794 0.483413 0.000000
0.591671 0.481146 0.000000
0.629058 0.478712 0.000000
0.666917 0.476110 0.000000
0.705211 0.473335 0.000000
0.743905 0.470384 0.000000
0.782966 0.467253 0.000000
0.822360 0.463939 0.000000
0.862055 0.460439 0.000000
0.902020 0.456749 0.000000
0.942224 0.452867 0.000000
0.982635 0.448787 0.000000
1.000000 0.444508 0.000000
0.073072 0.534493 0.073656
0.074427 0.534478 0.073605
0.080008 0.534416 0.073388
0.090448 0.534290 0.072946
0.105321 0.534089 0.072235
0.123849 0.533803 0.071215
0.145296 0.533424 0.069847
0.169087 0.532946 0.068089
0.194800 0.532361 0.065892
0.222128 0.531664 0.063198
0.250842 0.530851 0.059931
0.280770 0.529914 0.055989
0.311776 0.528851 0.051226
0.343751 0.527655 0.045411
0.376605 0.526324 0.038126
0.410264 0.524852 0.028439
0.444661 0.523235 0.012548
0.479739 0.521471 0.000000
0.515447 0.519554 0.000000
0.551739 0.517482 0.000000
0.588570 0.515251 0.000000
0.625901 0.512857 0.000000
0.663695 0.510297 0.000000
0.701915 0.507568 0.000000
0.740528 0.504666 0.000000
0.779499 0.501589 0.000000
0.818796 0.498332 0.000000
0.858388 0.494894 0.000000
0.898243 0.491270 0.000000
0.938330 0.487459 0.000000
0.978618 0.483455 0.000000
1.000000 0.479258 0.000000
0.064308 0.568541 0.064252
0.065804 0.568527 0.064196
0.071907 0.568466 0.063956
0.083138 0.568341 0.063467
0.098851 0.568142 0.062678
0.118128 0.567858 0.061544
0.140191 0.567484 0.060017
0.164469 0.567010 0.058043
0.190562 0.566431 0.055557
0.218181 0.565742 0.052475
0.247118 0.564937 0.048679
0.277212 0.564010 0.043996
0.308340 0.562957 0.038131
0.340401 0.561775 0.030505
0.373312 0.560457 0.019482
0.407002 0.559001 0.000000
0.441409 0.557401 0.000000
0.476479 0.555656 0.000000
0.512163 0.553760 0.000000
0.548417 0.551711 0.000000
0.585198 0.549504 0.000000
0.622468 0.547137 0.000000
0.660190 0.544607 0.000000
0.698330 0.541909 0.000000
0.736852 0.539041 0.000000
0.775725 0.536000 0.000000
0.814917 0.532783 0.000000
0.854395 0.529387 0.000000
0.894130 0.525809 0.000000
0.934089 0.522046 0.000000
0.974243 0.518094 0.000000
1.000000 0.513953 0.000000
0.053678 0.602732 0.052864
0.055399 0.602718 0.052799
0.062309 0.602657 0.052521
0.074680 0.602533 0.051952
0.091518 0.602335 0.051032
0.111743 0.602053 0.049702
0.134552 0.601681 0.047896
0.159405 0.601210 0.045533
0.185935 0.600635 0.042505
0.213886 0.599950 0.038652
0.243073 0.599149 0.033711
0.273354 0.598229 0.027164
0.304617 0.597183 0.017581
0.336773 0.596007 0.000000
0.369746 0.594698 0.000000
0.403470 0.593251 0.000000
0.437888 0.591662 0.000000
0.472949 0.589928 0.000000
0.508607 0.588044 0.000000
0.544819 0.586009 0.000000
0.581545 0.583817 0.000000
0.618747 0.581466 0.000000
0.656391 0.578953 0.000000
0.694442 0.576274 0.000000
0.732866 0.573426 0.000000
0.771632 0.570407 0.000000
0.810708 0.567214 0.000000
0.850063 0.563843 0.000000
0.889666 0.560292 0.000000
0.929485 0.556558 0.000000
0.969492 0.552638 0.000000
1.000000 0.548530 0.000000
0.039966 0.636967 0.038083
0.042131 0.636953 0.037999
0.050507 0.636892 0.037638
0.064698 0.636768 0.036897
0.083132 0.636570 0.035685
0.104591 0.636290 0.033905
0.128321 0.635918 0.031423
0.153856 0.635448 0.028036
0.180893 0.634875 0.023374
0.209223 0.634191 0.016527
0.238691 0.633393 0.000000
0.269181 0.632474 0.000000
0.300595 0.631430 0.000000
0.332856 0.630258 0.000000
0.365897 0.628952 0.000000
0.399658 0.627508 0.000000
0.434088 0.625923 0.000000
0.469139 0.624194 0.000000
0.504767 0.622315 0.000000
0.540933 0.620285 0.000000
0.577599 0.618099 0.000000
0.614728 0.615754 0.000000
0.652286 0.613248 0.000000
0.690240 0.610577 0.000000
0.728558 0.607737 0.000000
0.767207 0.604727 0.000000
0.806156 0.601544 0.000000
0.845376 0.598183 0.000000
0.884835 0.594644 0.000000
0.924504 0.590922 0.000000
0.964350 0.587016 0.000000
1.000000 0.582922 0.000000
0.018370 0.671148 0.012947
0.022229 0.671134 0.012744
0.034702 0.671073 0.011841
0.052472 0.670950 0.009803
0.073393 0.670752 0.005435
0.096533 0.670471 0.000000
0.121422 0.670098 0.000000
0.147777 0.669628 0.000000
0.175407 0.669054 0.000000
0.204170 0.668370 0.000000
0.233957 0.667570 0.000000
0.264680 0.666650 0.000000
0.296262 0.665606 0.000000
0.328639 0.664432 0.000000
0.361754 0.663124 0.000000
0.395556 0.661679 0.000000
0.429998 0.660093 0.000000
0.465038 0.658361 0.000000
0.500634 0.656481 0.000000
0.536750 0.654448 0.000000
0.573350 0.652260 0.000000
0.610398 0.649913 0.000000
0.647863 0.647404 0.000000
0.685712 0.644731 0.000000
0.723912 0.641889 0.000000
0.762434 0.638876 0.000000
0.801247 0.635690 0.000000
0.840320 0.632327 0.000000
0.879624 0.628785 0.000000
0.919127 0.625061 0.000000
0.958800 0.621152 0.000000
0.998613 0.617056 0.000000
0.000000 0.705180 0.000000
0.000000 0.705166 0.000000
0.000000 0.705105 0.000000
0.036187 0.704980 0.000000
0.061771 0.704782 0.000000
0.087361 0.704499 0.000000
0.113756 0.704126 0.000000
0.141113 0.703653 0.000000
0.169441 0.703077 0.000000
0.198703 0.702389 0.000000
0.228852 0.701586 0.000000
0.259835 0.700663 0.000000
0.291604 0.699613 0.000000
0.324109 0.698434 0.000000
0.357306 0.697121 0.000000
0.391152 0.695670 0.000000
0.425608 0.694076 0.000000
0.460635 0.692337 0.000000
0.496196 0.690449 0.000000
0.532257 0.688407 0.000000
0.568785 0.686210 0.000000
0.605746 0.683853 0.000000
0.643109 0.681333 0.000000
0.680843 0.678648 0.000000
0.718917 0.675794 0.000000
0.757301 0.672768 0.000000
0.795965 0.669568 0.000000
0.834879 0.666190 0.000000
0.874014 0.662633 0.000000
0.913339 0.658893 0.000000
0.952824 0.654967 0.000000
0.992438 0.650853 0.000000
0.000000 0.738965 0.000000
0.000000 0.738950 0.000000
0.000000 0.738889 0.000000
0.000000 0.738763 0.000000
0.047130 0.738563 0.000000
0.076745 0.738279 0.000000
0.105187 0.737902 0.000000
0.133795 0.737427 0.000000
0.162954 0.736846 0.000000
0.192794 0.736153 0.000000
0.223354 0.735345 0.000000
0.254631 0.734414 0.000000
0.286607 0.733357 0.000000
0.319254 0.732170 0.000000
0.352541 0.730847 0.000000
0.386436 0.729385 0.000000
0.420906 0.727780 0.000000
0.455919 0.726028 0.000000
0.491442 0.724125 0.000000
0.527443 0.722069 0.000000
0.563892 0.719855 0.000000
0.600758 0.717480 0.000000
0.638010 0.714942 0.000000
0.675619 0.712237 0.000000
0.713556 0.709361 0.000000
0.751790 0.706313 0.000000
0.790293 0.703089 0.000000
0.829035 0.699686 0.000000
0.867987 0.696101 0.000000
0.907119 0.692333 0.000000
0.946401 0.688377 0.000000
0.985802 0.684232 0.000000
0.000000 0.772403 0.000000
0.000000 0.772389 0.000000
0.000000 0.772326 0.000000
0.000000 0.772200 0.000000
0.025622 0.771998 0.000000
0.064097 0.771711 0.000000
0.095516 0.771330 0.000000
0.125730 0.770850 0.000000
0.155895 0.770263 0.000000
0.186411 0.769564 0.000000
0.217440 0.768747 0.000000
0.249049 0.767807 0.000000
0.281256 0.766740 0.000000
0.314060 0.765540 0.000000
0.347446 0.764204 0.000000
0.381394 0.762727 0.000000
0.415880 0.761106 0.000000
0.450877 0.759336 0.000000
0.486358 0.757414 0.000000
0.522294 0.755337 0.000000
0.558657 0.753101 0.000000
0.595420 0.750702 0.000000
0.632552 0.748138 0.000000
0.670026 0.745404 0.000000
0.707814 0.742499 0.000000
0.745887 0.739419 0.000000
0.784215 0.736162 0.000000
0.822772 0.732723 0.000000
0.861526 0.729101 0.000000
0.900449 0.725293 0.000000
0.939511 0.721295 0.000000
0.978682 0.717106 0.000000
0.000000 0.805395 0.000000
0.000000 0.805381 0.000000
0.000000 0.805318 0.000000
0.000000 0.805190 0.000000
0.000000 0.804985 0.000000
0.048115 0.804694 0.000000
0.084436 0.804309 0.000000
0.116796 0.803823 0.000000
0.148200 0.803229 0.000000
0.179514 0.802521 0.000000
0.211085 0.801694 0.000000
0.243068 0.800742 0.000000
0.275534 0.799661 0.000000
0.308512 0.798447 0.000000
0.342008 0.797094 0.000000
0.376015 0.795598 0.000000
0.410518 0.793957 0.000000
0.445498 0.792164 0.000000
0.480932 0.790218 0.000000
0.516797 0.788115 0.000000
0.553068 0.785850 0.000000
0.589717 0.783420 0.000000
0.626720 0.780823 0.000000
0.664048 0.778054 0.000000
0.701675 0.775112 0.000000
0.739572 0.771992 0.000000
0.777713 0.768691 0.000000
0.816068 0.765208 0.000000
0.854609 0.761538 0.000000
0.893307 0.757679 0.000000
0.932133 0.753628 0.000000
0.971055 0.749383 0.000000
0.000000 0.837838 0.000000
0.000000 0.837823 0.000000
0.000000 0.837759 0.000000
0.000000 0.837629 0.000000
0.000000 0.837422 0.000000
0.024004 0.837127 0.000000
0.071410 0.836736 0.000000
0.106819 0.836242 0.000000
0.139789 0.835639 0.000000
0.172058 0.834921 0.000000
0.204256 0.834082 0.000000
0.236666 0.833116 0.000000
0.269423 0.832019 0.000000
