i_love_nvidia/cinematic.cube
# Created with create_lut.py
# Configuration: {"brightness":1.1,"contrast":1.3,"saturation":1.1,"temperature":5600.0,"tint":0.0,"highlight_rolloff":0.7,"shadow_lift":0.02,"black_point":0.002,"highlight_warmth":1.05,"shadow_coolness":0.95,"midtone_contrast":1.2,"gamma":0.42}
TITLE "Custom LUT"
LUT_3D_SIZE 5
DOMAIN_MIN 0.000000 0.000000 0.000000
DOMAIN_MAX 0.903226 0.903226 0.903226
0.121729 0.124441 0.127031
0.200361 0.120780 0.123218
0.399836 0.104087 0.105858
0.650037 0.061131 0.061233
0.926995 0.000000 0.000000
0.117397 0.203899 0.122168
0.197263 0.201379 0.118263
0.397471 0.190380 0.100390
0.647587 0.166733 0.052881
0.924090 0.123370 0.000000
0.097369 0.401790 0.099996
0.183660 0.400098 0.095548
0.387242 0.392838 0.074403
0.636971 0.377996 0.000000
0.911467 0.353961 0.000000
0.039966 0.636967 0.038083
0.153856 0.635448 0.028036
0.365897 0.628952 0.000000
0.614728 0.615754 0.000000
0.884835 0.594644 0.000000
0.000000 0.869626 0.000000
0.095536 0.868003 0.000000
0.330042 0.861058 0.000000
0.577157 0.846940 0.000000
0.839323 0.824329 0.000000
0.118524 0.121116 0.209393
0.198233 0.117377 0.206734
0.398584 0.100260 0.195148
0.649121 0.055140 0.170360
0.926213 0.000000 0.125284
0.114106 0.201679 0.205664
0.195116 0.199141 0.202989
0.396217 0.188057 0.191326
0.646670 0.164188 0.166321
0.923307 0.120194 0.120541
0.093573 0.400462 0.189512
0.181418 0.398768 0.186758
0.385980 0.391500 0.174711
0.636052 0.376640 0.148596
0.910680 0.352574 0.098956
0.031715 0.635966 0.155320
0.151350 0.634447 0.152325
0.364616 0.627950 0.139077
0.613805 0.614753 0.109223
0.884041 0.593641 0.039557
0.000000 0.868734 0.092274
0.092028 0.867112 0.088233
0.328728 0.860168 0.069096
0.576228 0.846051 0.000000
0.838515 0.823441 0.000000
0.103937 0.105981 0.418482
0.188927 0.101826 0.416606
0.393200 0.082336 0.408573
0.645196 0.016784 0.392217
0.922865 0.000000 0.365920
0.099051 0.191975 0.415085
0.185718 0.189353 0.413211
0.390824 0.177870 0.405186
0.642743 0.152945 0.388846
0.919955 0.105780 0.362569
0.075651 0.394754 0.400587
0.171579 0.393052 0.398721
0.380550 0.385749 0.390729
0.632115 0.370813 0.374452
0.907312 0.346606 0.348256
0.000000 0.631679 0.371293
0.140242 0.630161 0.369442
0.359106 0.623663 0.361511
0.609849 0.610464 0.345341
0.880639 0.589350 0.319274
0.000000 0.864921 0.324772
0.075585 0.863299 0.322937
0.323067 0.856357 0.315072
0.572244 0.842245 0.299005
0.835057 0.819643 0.272992
0.067239 0.067842 0.681730
0.168837 0.061805 0.679960
0.382121 0.026406 0.672402
0.637192 0.000000 0.657101
0.916053 0.000000 0.632775
0.060235 0.171050 0.677705
0.165393 0.168211 0.675938
0.379727 0.155692 0.668391
0.634734 0.127872 0.653112
0.913135 0.069957 0.628822
0.012694 0.383030 0.660516
0.150096 0.381310 0.658761
0.369371 0.373931 0.651260
0.624087 0.358827 0.636076
0.900459 0.334308 0.611936
0.000000 0.622955 0.625746
0.115189 0.621436 0.624012
0.347750 0.614937 0.616604
0.601784 0.601734 0.601607
0.873718 0.580612 0.577763
0.000000 0.857177 0.570476
0.024200 0.855556 0.568775
0.311378 0.848619 0.561506
0.564121 0.834516 0.546791
0.828024 0.811928 0.523388
0.000000 0.000000 0.975458
0.132047 0.000000 0.973532
0.363973 0.000000 0.965303
0.624303 0.000000 0.948639
0.905126 0.000000 0.922133
0.000000 0.132755 0.970393
0.127971 0.129337 0.968469
0.361545 0.113913 0.960248
0.621838 0.076254 0.943600
0.902196 0.000000 0.917118
0.000000 0.363885 0.948734
0.109377 0.362134 0.946818
0.351043 0.354614 0.938630
0.611160 0.339200 0.922048
0.889467 0.314102 0.895670
0.000000 0.608952 0.904778
0.061093 0.607433 0.902877
0.329097 0.600930 0.894753
0.588797 0.587719 0.878298
0.862620 0.566582 0.852119
0.000000 0.844795 0.834505
0.000000 0.843176 0.832625
0.292098 0.836247 0.824590
0.551043 0.822159 0.808314
0.816748 0.799595 0.782408
