i_love_nvidia/warm_vintage.cube
# Created with create_lut.py
# Configuration: {"brightness":1.05,"contrast":1.4,"saturation":0.9,"temperature":5000.0,"tint":0.1,"highlight_rolloff":0.8,"shadow_lift":0.03,"black_point":0.005,"highlight_warmth":1.1,"shadow_coolness":0.9,"midtone_contrast":1.3,"gamma":0.45}
TITLE "Custom LUT"
LUT_3D_SIZE 5
DOMAIN_MIN 0.000000 0.000000 0.000000
DOMAIN_MAX 0.903226 0.903226 0.903226
0.102923 0.113223 0.123611
0.152451 0.114904 0.125261
0.303704 0.121883 0.132085
0.520605 0.135128 0.144888
0.785257 0.154195 0.162911
0.104021 0.166886 0.124076
0.153341 0.168161 0.125704
0.304337 0.173509 0.132438
0.521098 0.183869 0.145076
0.785626 0.199189 0.162875
0.108535 0.328089 0.125786
0.157004 0.328757 0.127323
0.306911 0.331578 0.133687
0.523032 0.337113 0.145649
0.786970 0.345441 0.162521
0.116789 0.548864 0.127957
0.163723 0.549072 0.129328
0.311446 0.549942 0.135011
0.526079 0.551593 0.145716
0.788520 0.553914 0.160837
0.127482 0.795481 0.128172
0.172360 0.795282 0.129317
0.316652 0.794409 0.134064
0.528394 0.792545 0.143017
0.787622 0.789305 0.155653
0.105035 0.115405 0.183726
0.154134 0.117064 0.184912
0.304834 0.123956 0.189859
0.521433 0.137052 0.199305
0.785907 0.155935 0.212905
0.106120 0.168600 0.183679
0.155018 0.169865 0.184851
0.305465 0.175170 0.189738
0.521924 0.185451 0.199071
0.786274 0.200662 0.212505
0.110581 0.329164 0.183281
0.158657 0.329830 0.184394
0.308030 0.332636 0.189034
0.523851 0.338145 0.197893
0.787608 0.346432 0.210632
0.118743 0.549540 0.181534
0.165327 0.549747 0.182533
0.312545 0.550609 0.186701
0.526881 0.552247 0.194651
0.789138 0.554546 0.206051
0.129313 0.795872 0.176304
0.173893 0.795671 0.177140
0.317717 0.794794 0.180624
0.529165 0.792920 0.187249
0.788205 0.789664 0.196683
0.113805 0.124459 0.366250
0.161219 0.126032 0.366687
0.309641 0.132583 0.368505
0.524967 0.145091 0.371946
0.788682 0.163234 0.376768
0.114841 0.175805 0.365033
0.162078 0.177027 0.365463
0.310263 0.182157 0.367250
0.525450 0.192115 0.370628
0.789039 0.206880 0.375353
0.119098 0.333731 0.359720
0.165616 0.334382 0.360119
0.312789 0.337131 0.361773
0.527344 0.342526 0.364887
0.790333 0.350640 0.369205
0.126894 0.552418 0.348411
0.172090 0.552618 0.348748
0.317221 0.553452 0.350140
0.530301 0.555030 0.352734
0.791775 0.557238 0.356248
0.136978 0.797533 0.328951
0.180362 0.797327 0.329194
0.322246 0.796430 0.330190
0.532455 0.794515 0.331993
0.790690 0.791194 0.334286
0.130508 0.141664 0.625377
0.175076 0.143095 0.625173
0.319270 0.149076 0.624267
0.532094 0.160578 0.622286
0.794288 0.177419 0.618728
0.131462 0.189852 0.622738
0.175892 0.190997 0.622529
0.319875 0.195809 0.621604
0.532562 0.205175 0.619585
0.794626 0.219111 0.615967
0.135385 0.342837 0.611393
0.179245 0.343462 0.611165
0.322322 0.346098 0.610159
0.534387 0.351269 0.607976
0.795837 0.359042 0.604104
0.142568 0.558194 0.588082
0.185359 0.558380 0.587816
0.326586 0.559156 0.586649
0.537196 0.560617 0.584143
0.797100 0.562640 0.579767
0.151805 0.800866 0.550110
0.193084 0.800651 0.549785
0.331317 0.799713 0.548372
0.539085 0.797715 0.545372
0.795705 0.794261 0.540225
0.154891 0.166648 0.936664
0.195991 0.167909 0.935847
0.334314 0.173199 0.932333
0.543355 0.183447 0.925105
0.803172 0.198599 0.913297
0.155748 0.210920 0.932394
0.196747 0.211961 0.931574
0.334891 0.216345 0.928049
0.543798 0.224900 0.920797
0.803479 0.237683 0.908953
0.159273 0.356958 0.914111
0.199851 0.357543 0.913280
0.337216 0.360007 0.909704
0.545513 0.364839 0.902352
0.804554 0.372093 0.890352
0.165700 0.567241 0.876898
0.205467 0.567406 0.876044
0.341215 0.568090 0.872369
0.548081 0.569367 0.864820
0.805529 0.571098 0.852512
0.173844 0.806084 0.817218
0.212416 0.805854 0.816328
0.345481 0.804851 0.812505
0.549540 0.802720 0.804658
0.803631 0.799055 0.791887
