i_love_nvidia/warm_vintage.cube
# Created with create_lut.py
# Configuration: {"brightness":1.05,"contrast":1.4,"saturation":0.9,"temperature":5000.0,"tint":0.1,"highlight_rolloff":0.8,"shadow_lift":0.03,"black_point":0.005,"highlight_warmth":1.1,"shadow_coolness":0.9,"midtone_contrast":1.3,"gamma":0.45}
TITLE "Custom LUT"
LUT_3D_SIZE 32
0.102923 0.113223 0.123611
0.103448 0.113239 0.123626
0.105677 0.113307 0.123693
0.110121 0.113444 0.123828
0.117016 0.113664 0.124044
0.126422 0.113975 0.124350
0.138277 0.114386 0.124753
0.152451 0.114904 0.125261
0.168782 0.115534 0.125879
0.187106 0.116281 0.126611
0.207264 0.117149 0.127462
0.229118 0.118141 0.128432
0.252544 0.119260 0.129526
0.277436 0.120507 0.130743
0.303704 0.121883 0.132085
0.331267 0.123390 0.133552
0.360059 0.125027 0.135143
0.390020 0.126794 0.136856
0.421098 0.128689 0.138689
0.453248 0.130711 0.140641
0.486429 0.132858 0.142708
0.520605 0.135128 0.144888
0.555743 0.137519 0.147175
0.591813 0.140026 0.149566
0.628788 0.142647 0.152057
0.666642 0.145378 0.154642
0.705353 0.148216 0.157316
0.744899 0.151157 0.160075
0.785257 0.154195 0.162911
0.826410 0.157328 0.165820
0.868337 0.160550 0.168794
0.911021 0.163857 0.171828
0.102933 0.113794 0.123615
0.103458 0.113809 0.123631
0.105687 0.113877 0.123697
0.110131 0.114014 0.123832
0.117026 0.114233 0.124048
0.126431 0.114543 0.124354
0.138286 0.114953 0.124758
0.152459 0.115469 0.125266
0.168790 0.116097 0.125883
0.187113 0.116841 0.126616
0.207271 0.117706 0.127466
0.229125 0.118695 0.128436
0.252550 0.119810 0.129530
0.277442 0.121053 0.130747
0.303710 0.122426 0.132089
0.331273 0.123928 0.133555
0.360065 0.125560 0.135146
0.390025 0.127322 0.136858
0.421103 0.129211 0.138692
0.453253 0.131228 0.140644
0.486434 0.133369 0.142711
0.520610 0.135633 0.144890
0.555747 0.138017 0.147177
0.591817 0.140518 0.149568
0.628792 0.143132 0.152058
0.666646 0.145857 0.154643
0.705357 0.148688 0.157317
0.744902 0.151621 0.160075
0.785261 0.154653 0.162911
0.826413 0.157779 0.165819
0.868341 0.160994 0.168793
0.911024 0.164294 0.171827
0.102977 0.116215 0.123634
0.103502 0.116230 0.123650
0.105731 0.116297 0.123716
0.110174 0.116432 0.123851
0.117067 0.116647 0.124067
0.126471 0.116953 0.124373
0.138324 0.117357 0.124776
0.152495 0.117866 0.125284
0.168824 0.118485 0.125901
0.187145 0.119219 0.126633
0.207302 0.120073 0.127483
0.229154 0.121048 0.128453
0.252578 0.122148 0.129545
0.277469 0.123375 0.130762
0.303735 0.124730 0.132103
0.331298 0.126213 0.133569
0.360088 0.127825 0.135159
0.390048 0.129564 0.136870
0.421126 0.131431 0.138703
0.453275 0.133424 0.140654
0.486455 0.135540 0.142720
0.520630 0.137779 0.144897
0.555767 0.140136 0.147183
0.591836 0.142610 0.149573
0.628810 0.145197 0.152062
0.666664 0.147893 0.154646
0.705374 0.150696 0.157319
0.744918 0.153600 0.160075
0.785276 0.156603 0.162910
0.826428 0.159699 0.165816
0.868354 0.162885 0.168789
0.911037 0.166156 0.171822
0.103067 0.121040 0.123673
0.103592 0.121055 0.123689
0.105819 0.121120 0.123755
0.110261 0.121252 0.123890
0.117151 0.121461 0.124105
0.126551 0.121759 0.124411
0.138400 0.122152 0.124813
0.152568 0.122647 0.125321
0.168893 0.123249 0.125937
0.187211 0.123964 0.126668
0.207364 0.124795 0.127517
0.229213 0.125744 0.128486
0.252635 0.126816 0.129578
0.277523 0.128012 0.130793
0.303787 0.129332 0.132133
0.331348 0.130778 0.133597
0.360136 0.132351 0.135185
0.390095 0.134048 0.136895
0.421170 0.135871 0.138725
0.453318 0.137818 0.140674
0.486497 0.139886 0.142738
0.520670 0.142075 0.144913
0.555806 0.144381 0.147197
0.591874 0.146802 0.149584
0.628847 0.149335 0.152071
0.666699 0.151977 0.154652
0.705408 0.154724 0.157322
0.744951 0.157572 0.160076
0.785307 0.160518 0.162907
0.826457 0.163557 0.165811
0.868381 0.166685 0.168781
0.911062 0.169898 0.171810
0.103211 0.128523 0.123735
0.103735 0.128538 0.123750
0.105961 0.128600 0.123816
0.110399 0.128726 0.123951
0.117285 0.128927 0.124166
0.126680 0.129213 0.124471
0.138523 0.129590 0.124873
0.152684 0.130065 0.125379
0.169004 0.130643 0.125995
0.187316 0.131329 0.126725
0.207464 0.132127 0.127572
0.229308 0.133040 0.128539
0.252725 0.134070 0.129629
0.277610 0.135220 0.130842
0.303870 0.136491 0.132180
0.331427 0.137883 0.133641
0.360213 0.139398 0.135226
0.390169 0.141034 0.136934
0.421242 0.142792 0.138761
0.453387 0.144671 0.140706
0.486564 0.146669 0.142767
0.520735 0.148784 0.144939
0.555868 0.151014 0.147219
0.591934 0.153357 0.149602
0.628905 0.155810 0.152084
0.666755 0.158370 0.154661
0.705461 0.161034 0.157327
0.745002 0.163798 0.160076
0.785356 0.166658 0.162903
0.826503 0.169611 0.165803
0.868424 0.172652 0.168768
0.911102 0.175778 0.171792
0.103415 0.138722 0.123821
0.103938 0.138736 0.123837
0.106162 0.138794 0.123903
0.110595 0.138914 0.124037
0.117475 0.139105 0.124252
0.126862 0.139375 0.124555
0.138696 0.139732 0.124957
0.152849 0.140183 0.125462
0.169160 0.140731 0.126076
0.187464 0.141382 0.126804
0.207605 0.142139 0.127649
0.229442 0.143006 0.128614
0.252853 0.143985 0.129701
0.277732 0.145077 0.130911
0.303987 0.146285 0.132245
0.331540 0.147610 0.133703
0.360322 0.149052 0.135285
0.390274 0.150611 0.136988
0.421343 0.152287 0.138811
0.453485 0.154080 0.140752
0.486658 0.155987 0.142807
0.520827 0.158008 0.144974
0.555957 0.160141 0.147249
0.592020 0.162384 0.149626
0.628987 0.164734 0.152103
0.666834 0.167188 0.154674
0.705537 0.169744 0.157334
0.745074 0.172399 0.160077
0.785424 0.175148 0.162897
0.826568 0.177988 0.165790
0.868485 0.180916 0.168748
0.911158 0.183927 0.171766
0.103683 0.151561 0.123934
0.104206 0.151574 0.123950
0.106426 0.151629 0.124016
0.110854 0.151741 0.124150
0.117726 0.151920 0.124363
0.127102 0.152173 0.124666
0.138925 0.152509 0.125066
0.153067 0.152931 0.125570
0.169366 0.153446 0.126182
0.187660 0.154057 0.126907
0.207790 0.154768 0.127749
0.229619 0.155583 0.128711
0.253022 0.156503 0.129795
0.277894 0.157530 0.131001
0.304142 0.158668 0.132331
0.331689 0.159915 0.133785
0.360465 0.161274 0.135361
0.390412 0.162745 0.137059
0.421476 0.164327 0.138876
0.453614 0.166020 0.140811
0.486783 0.167823 0.142860
0.520947 0.169735 0.145020
0.556073 0.171755 0.147287
0.592132 0.173880 0.149658
0.629095 0.176109 0.152127
0.666938 0.178439 0.154690
0.705637 0.180868 0.157341
0.745169 0.183392 0.160076
0.785514 0.186009 0.162888
0.826652 0.188715 0.165772
0.868564 0.191507 0.168721
0.911231 0.194380 0.171730
0.104021 0.166886 0.124076
0.104543 0.166898 0.124091
0.106760 0.166949 0.124157
0.111180 0.167053 0.124290
0.118041 0.167220 0.124503
0.127405 0.167456 0.124804
0.139214 0.167768 0.125203
0.153341 0.168161 0.125704
0.169626 0.168640 0.126313
0.187906 0.169209 0.127036
0.208024 0.169872 0.127875
0.229841 0.170631 0.128833
0.253234 0.171489 0.129912
0.278097 0.172447 0.131113
0.304337 0.173509 0.132438
0.331876 0.174674 0.133885
0.360645 0.175944 0.135455
0.390585 0.177319 0.137146
0.421644 0.178800 0.138956
0.453775 0.180385 0.140883
0.486939 0.182075 0.142924
0.521098 0.183869 0.145076
0.556219 0.185765 0.147334
0.592272 0.187762 0.149696
0.629230 0.189858 0.152155
0.667068 0.192052 0.154708
0.705761 0.194340 0.157350
0.745287 0.196720 0.160074
0.785626 0.199189 0.162875
0.826758 0.201745 0.165748
0.868662 0.204383 0.168686
0.911322 0.207102 0.171683
0.104432 0.184506 0.124245
0.104953 0.184517 0.124260
0.107164 0.184564 0.124325
0.111576 0.184660 0.124458
0.118424 0.184814 0.124670
0.127772 0.185032 0.124970
0.139564 0.185321 0.125366
0.153673 0.185685 0.125865
0.169942 0.186128 0.126471
0.188205 0.186655 0.127190
0.208309 0.187268 0.128024
0.230112 0.187971 0.128978
0.253492 0.188765 0.130051
0.278343 0.189654 0.131247
0.304573 0.190638 0.132565
0.332102 0.191719 0.134005
0.360863 0.192898 0.135567
0.390795 0.194175 0.137250
0.421846 0.195551 0.139051
0.453971 0.197025 0.140969
0.487128 0.198598 0.143000
0.521280 0.200269 0.145141
0.556394 0.202036 0.147389
0.592441 0.203898 0.149739
0.629393 0.205855 0.152187
0.667224 0.207904 0.154728
0.705910 0.210043 0.157357
0.745429 0.212269 0.160069
0.785760 0.214582 0.162857
0.826883 0.216977 0.165716
0.868779 0.219451 0.168641
0.911429 0.222003 0.171624
0.104918 0.204221 0.124441
0.105438 0.204231 0.124457
0.107644 0.204275 0.124521
0.112045 0.204364 0.124653
0.118878 0.204505 0.124864
0.128207 0.204706 0.125162
0.139979 0.204971 0.125556
0.154068 0.205306 0.126052
0.170316 0.205714 0.126654
0.188560 0.206199 0.127369
0.208645 0.206763 0.128198
0.230432 0.207411 0.129146
0.253797 0.208143 0.130213
0.278634 0.208962 0.131402
0.304852 0.209869 0.132712
0.332370 0.210866 0.134144
0.361120 0.211954 0.135697
0.391043 0.213134 0.137370
0.422085 0.214405 0.139160
0.454201 0.215768 0.141067
0.487350 0.217223 0.143087
0.521494 0.218769 0.145216
0.556601 0.220406 0.147451
0.592640 0.222132 0.149788
0.629584 0.223946 0.152222
0.667406 0.225848 0.154749
0.706084 0.227834 0.157363
0.745594 0.229903 0.160059
0.785916 0.232053 0.162832
0.827029 0.234282 0.165675
0.868914 0.236586 0.168583
0.911553 0.238963 0.171550
0.105482 0.225841 0.124665
0.106000 0.225851 0.124680
0.108200 0.225891 0.124745
0.112588 0.225972 0.124875
0.119404 0.226101 0.125084
0.128713 0.226285 0.125381
0.140461 0.226528 0.125772
0.154525 0.226835 0.126264
0.170749 0.227209 0.126862
0.188971 0.227653 0.127572
0.209035 0.228171 0.128396
0.230803 0.228764 0.129336
0.254151 0.229436 0.130396
0.278972 0.230187 0.131576
0.305175 0.231020 0.132878
0.332680 0.231935 0.134300
0.361418 0.232935 0.135842
0.391329 0.234018 0.137504
0.422361 0.235187 0.139283
0.454467 0.236440 0.141176
0.487605 0.237778 0.143182
0.521740 0.239202 0.145297
0.556838 0.240709 0.147518
0.592868 0.242299 0.149839
0.629802 0.243972 0.152257
0.667615 0.245725 0.154767
0.706282 0.247558 0.157365
0.745782 0.249469 0.160043
0.786093 0.251455 0.162798
0.827194 0.253515 0.165623
0.869067 0.255646 0.168512
0.911692 0.257846 0.171459
0.106125 0.249190 0.124914
0.106641 0.249199 0.124929
0.108834 0.249235 0.124993
0.113209 0.249309 0.125122
0.120005 0.249427 0.125330
0.129289 0.249595 0.125624
0.141010 0.249817 0.126011
0.155047 0.250097 0.126500
0.171244 0.250438 0.127093
0.189440 0.250843 0.127797
0.209480 0.251316 0.128614
0.231226 0.251857 0.129548
0.254553 0.252471 0.130599
0.279356 0.253157 0.131770
0.305542 0.253917 0.133061
0.333032 0.254754 0.134472
0.361756 0.255667 0.136002
0.391654 0.256658 0.137651
0.422673 0.257726 0.139416
0.454767 0.258873 0.141295
0.487895 0.260098 0.143285
0.522018 0.261401 0.145384
0.557105 0.262781 0.147588
0.593124 0.264239 0.149891
0.630047 0.265772 0.152291
0.667848 0.267380 0.154783
0.706504 0.269061 0.157360
0.745991 0.270814 0.160019
0.786289 0.272638 0.162753
0.827376 0.274530 0.165557
0.869234 0.276487 0.168424
0.911843 0.278509 0.171349
0.106848 0.274108 0.125186
0.107362 0.274116 0.125200
0.109547 0.274149 0.125264
0.113906 0.274216 0.125392
0.120680 0.274323 0.125598
0.129937 0.274476 0.125889
0.141628 0.274677 0.126273
0.155634 0.274931 0.126757
0.171801 0.275241 0.127345
0.189967 0.275609 0.128043
0.209981 0.276039 0.128852
0.231701 0.276531 0.129777
0.255006 0.277088 0.130819
0.279788 0.277712 0.131979
0.305954 0.278404 0.133259
0.333426 0.279164 0.134657
0.362134 0.279995 0.136174
0.392017 0.280896 0.137808
0.423022 0.281868 0.139557
0.455102 0.282912 0.141420
0.488217 0.284027 0.143393
0.522328 0.285213 0.145474
0.557401 0.286470 0.147658
0.593407 0.287798 0.149942
0.630317 0.289195 0.152322
0.668105 0.290660 0.154792
0.706747 0.292193 0.157347
0.746220 0.293792 0.159983
0.786502 0.295455 0.162694
0.827574 0.297180 0.165474
0.869414 0.298966 0.168317
0.912005 0.300811 0.171217
0.107651 0.300451 0.125477
0.108164 0.300458 0.125492
0.110339 0.300488 0.125555
0.114681 0.300548 0.125682
0.121431 0.300645 0.125885
0.130658 0.300783 0.126173
0.142315 0.300965 0.126554
0.156287 0.301195 0.127033
0.172419 0.301475 0.127615
0.190553 0.301808 0.128305
0.210536 0.302196 0.129107
0.232228 0.302641 0.130022
0.255507 0.303145 0.131054
0.280266 0.303709 0.132202
0.306411 0.304334 0.133469
0.333863 0.305022 0.134853
0.362552 0.305773 0.136355
0.392417 0.306588 0.137973
0.423406 0.307468 0.139705
0.455471 0.308412 0.141549
0.488570 0.309421 0.143503
0.522666 0.310494 0.145563
0.557725 0.311632 0.147727
0.593716 0.312834 0.149988
0.630611 0.314098 0.152345
0.668384 0.315425 0.154791
0.707010 0.316813 0.157322
0.746466 0.318260 0.159933
0.786731 0.319766 0.162618
0.827783 0.321328 0.165371
0.869604 0.322946 0.168187
0.912173 0.324616 0.171060
0.108535 0.328089 0.125786
0.109044 0.328095 0.125800
0.111210 0.328122 0.125862
0.115534 0.328177 0.125988
0.122256 0.328264 0.126189
0.131450 0.328388 0.126474
0.143071 0.328551 0.126850
0.157004 0.328757 0.127323
0.173100 0.329009 0.127899
0.191198 0.329308 0.128581
0.211147 0.329657 0.129374
0.232808 0.330057 0.130279
0.256058 0.330509 0.131299
0.280790 0.331016 0.132435
0.306911 0.331578 0.133687
0.334340 0.332196 0.135056
0.363008 0.332871 0.136541
0.392854 0.333603 0.138141
0.423824 0.334394 0.139854
0.455871 0.335242 0.141679
0.488953 0.336148 0.143611
0.523032 0.337113 0.145649
0.558075 0.338135 0.147789
0.594049 0.339215 0.150026
0.630927 0.340351 0.152357
0.668682 0.341542 0.154777
0.707289 0.342789 0.157282
0.746726 0.344089 0.159864
0.786970 0.345441 0.162521
0.828001 0.346844 0.165245
0.869799 0.348296 0.168031
0.912344 0.349795 0.170872
0.109497 0.356905 0.126106
0.110004 0.356910 0.126121
0.112159 0.356934 0.126182
0.116463 0.356983 0.126306
0.123156 0.357060 0.126505
0.132314 0.357171 0.126786
0.143895 0.357317 0.127157
0.157787 0.357501 0.127625
0.173841 0.357725 0.128193
0.191900 0.357992 0.128867
0.211812 0.358303 0.129650
0.233438 0.358659 0.130543
0.256656 0.359063 0.131551
0.281359 0.359514 0.132672
0.307452 0.360015 0.133909
0.334857 0.360566 0.135262
0.363501 0.361168 0.136729
0.393325 0.361820 0.138309
0.424274 0.362524 0.140002
0.456301 0.363280 0.141804
0.489364 0.364088 0.143713
0.523424 0.364947 0.145727
0.558447 0.365857 0.147841
0.594402 0.366819 0.150052
0.631260 0.367830 0.152355
0.668995 0.368890 0.154747
0.707581 0.369999 0.157221
0.746996 0.371155 0.159774
0.787217 0.372358 0.162398
0.828224 0.373604 0.165090
0.869995 0.374894 0.167843
0.912513 0.376224 0.170651
0.110536 0.386788 0.126434
0.111041 0.386793 0.126448
0.113184 0.386815 0.126509
0.117466 0.386858 0.126631
0.124129 0.386926 0.126827
0.133248 0.387024 0.127104
0.144786 0.387152 0.127470
0.158633 0.387315 0.127931
0.174642 0.387513 0.128492
0.192658 0.387749 0.129157
0.212529 0.388023 0.129929
0.234118 0.388338 0.130811
0.257301 0.388694 0.131804
0.281971 0.389093 0.132911
0.308035 0.389535 0.134131
0.335411 0.390021 0.135465
0.364029 0.390552 0.136912
0.393828 0.391128 0.138472
0.424754 0.391749 0.140142
0.456758 0.392415 0.141920
0.489799 0.393127 0.143805
0.523837 0.393884 0.145792
0.558838 0.394686 0.147878
0.594771 0.395532 0.150060
0.631607 0.396422 0.152334
0.669319 0.397355 0.154694
0.707882 0.398330 0.157136
0.747271 0.399345 0.159656
0.787466 0.400401 0.162246
0.828445 0.401495 0.164903
0.870188 0.402625 0.167621
0.912673 0.403791 0.170392
0.111651 0.417640 0.126763
0.112152 0.417644 0.126777
0.114284 0.417662 0.126837
0.118543 0.417700 0.126957
0.125172 0.417760 0.127150
0.134250 0.417845 0.127423
0.145742 0.417957 0.127784
0.159540 0.418099 0.128238
0.175501 0.418272 0.128791
0.193470 0.418477 0.129446
0.213297 0.418717 0.130206
0.234844 0.418991 0.131075
0.257989 0.419302 0.132054
0.282624 0.419649 0.133144
0.308655 0.420034 0.134346
0.336000 0.420458 0.135661
0.364590 0.420920 0.137087
0.394361 0.421421 0.138624
0.425261 0.421962 0.140270
0.457239 0.422541 0.142023
0.490255 0.423160 0.143880
0.524269 0.423818 0.145839
0.559246 0.424514 0.147895
0.595154 0.425248 0.150046
0.631964 0.426020 0.152287
0.669650 0.426828 0.154614
0.708185 0.427672 0.157022
0.747547 0.428551 0.159505
0.787712 0.429463 0.162059
0.828660 0.430407 0.164679
0.870369 0.431381 0.167357
0.912819 0.432385 0.170089
0.112837 0.449362 0.127088
0.113336 0.449366 0.127101
0.115455 0.449382 0.127160
0.119689 0.449414 0.127279
0.126283 0.449465 0.127468
0.135317 0.449538 0.127737
0.146759 0.449635 0.128092
0.160506 0.449756 0.128539
0.176415 0.449905 0.129082
0.194334 0.450081 0.129727
0.214114 0.450286 0.130475
0.235616 0.450522 0.131330
0.258719 0.450788 0.132293
0.283315 0.451086 0.133366
0.309310 0.451416 0.134549
0.336621 0.451778 0.135843
0.365179 0.452174 0.137247
0.394920 0.452603 0.138759
0.425790 0.453065 0.140379
0.457740 0.453560 0.142105
0.490728 0.454088 0.143933
0.524714 0.454649 0.145861
0.559663 0.455242 0.147886
0.595544 0.455867 0.150004
0.632326 0.456523 0.152210
0.669982 0.457210 0.154501
0.708487 0.457926 0.156871
0.747817 0.458670 0.159317
0.787949 0.459441 0.161831
0.828861 0.460238 0.164410
0.870532 0.461059 0.167047
0.912943 0.461903 0.169737
0.114092 0.481865 0.127400
0.114588 0.481868 0.127414
0.116693 0.481882 0.127471
0.120902 0.481909 0.127588
0.127458 0.481952 0.127774
0.136446 0.482013 0.128038
0.147836 0.482094 0.128387
0.161528 0.482196 0.128826
0.177382 0.482321 0.129360
0.195247 0.482469 0.129993
0.214975 0.482641 0.130728
0.236430 0.482838 0.131568
0.259488 0.483061 0.132515
0.284041 0.483310 0.133570
0.309996 0.483587 0.134733
0.337270 0.483890 0.136004
0.365793 0.484220 0.137384
0.395500 0.484578 0.138871
0.426338 0.484964 0.140464
0.458257 0.485376 0.142160
0.491213 0.485816 0.143958
0.525169 0.486282 0.145853
0.560087 0.486775 0.147844
0.595936 0.487293 0.149926
0.632686 0.487836 0.152096
0.670309 0.488403 0.154348
0.708780 0.488993 0.156679
0.748074 0.489605 0.159084
0.788168 0.490238 0.161556
0.829040 0.490890 0.164092
0.870670 0.491561 0.166685
0.913036 0.492247 0.169329
0.115411 0.515061 0.127693
0.115903 0.515063 0.127706
0.117995 0.515074 0.127762
0.122177 0.515096 0.127877
0.128694 0.515131 0.128060
0.137633 0.515181 0.128319
0.148968 0.515247 0.128661
0.162602 0.515330 0.129092
0.178397 0.515431 0.129616
0.196205 0.515551 0.130237
0.215878 0.515691 0.130959
0.237281 0.515851 0.131783
0.260290 0.516032 0.132713
0.284798 0.516234 0.133748
0.310710 0.516458 0.134889
0.337943 0.516703 0.136138
0.366427 0.516970 0.137492
0.396097 0.517258 0.138952
0.426899 0.517569 0.140516
0.458783 0.517900 0.142181
0.491705 0.518253 0.143946
0.525626 0.518626 0.145807
0.560509 0.519020 0.147762
0.596323 0.519433 0.149807
0.633037 0.519865 0.151937
0.670623 0.520314 0.154149
0.709055 0.520781 0.156438
0.748309 0.521263 0.158799
0.788361 0.521759 0.161228
0.829189 0.522269 0.163717
0.870772 0.522790 0.166263
0.913088 0.523322 0.168860
0.116789 0.548864 0.127957
0.117278 0.548866 0.127970
0.119355 0.548874 0.128025
0.123509 0.548891 0.128137
0.129985 0.548918 0.128317
0.138873 0.548957 0.128571
0.150151 0.549008 0.128906
0.163723 0.549072 0.129328
0.179456 0.549151 0.129842
0.197203 0.549244 0.130451
0.216819 0.549352 0.131158
0.238166 0.549475 0.131966
0.261122 0.549615 0.132877
0.285581 0.549770 0.133892
0.311446 0.549942 0.135011
0.338635 0.550130 0.136235
0.367076 0.550334 0.137563
0.396706 0.550555 0.138994
0.427468 0.550791 0.140527
0.459313 0.551043 0.142160
0.492197 0.551311 0.143891
0.526079 0.551593 0.145716
0.560924 0.551889 0.147633
0.596699 0.552198 0.149638
0.633372 0.552520 0.151727
0.670917 0.552854 0.153896
0.709306 0.553198 0.156141
0.748515 0.553552 0.158456
0.788520 0.553914 0.160837
0.829298 0.554282 0.163279
0.870828 0.554656 0.165775
0.913089 0.555034 0.168320
0.118220 0.583190 0.128184
0.118705 0.583191 0.128197
0.120767 0.583197 0.128251
0.124892 0.583209 0.128360
0.131327 0.583229 0.128536
0.140162 0.583257 0.128784
0.151379 0.583293 0.129113
0.164887 0.583339 0.129526
0.180555 0.583395 0.130029
0.198238 0.583461 0.130625
0.217791 0.583537 0.131317
0.239079 0.583625 0.132108
0.261979 0.583724 0.133000
0.286384 0.583833 0.133993
0.312199 0.583954 0.135089
0.339340 0.584086 0.136287
0.367735 0.584229 0.137587
0.397320 0.584382 0.138988
0.428038 0.584546 0.140489
0.459840 0.584719 0.142088
0.492681 0.584902 0.143783
0.526521 0.585094 0.145570
0.561323 0.585294 0.147447
0.597054 0.585501 0.149411
0.633683 0.585715 0.151457
0.671181 0.585934 0.153581
0.709522 0.586157 0.155779
0.748680 0.586384 0.158046
0.788633 0.586612 0.160378
0.829356 0.586841 0.162768
0.870827 0.587068 0.165212
0.913026 0.587293 0.167704
0.119698 0.617956 0.128364
0.120179 0.617957 0.128376
0.122225 0.617961 0.128429
0.126321 0.617968 0.128536
0.132711 0.617980 0.128708
0.141492 0.617997 0.128951
0.152646 0.618019 0.129271
0.166087 0.618046 0.129675
0.181686 0.618080 0.130167
0.199301 0.618120 0.130749
0.218789 0.618165 0.131426
0.240014 0.618217 0.132199
0.262854 0.618276 0.133071
0.287202 0.618340 0.134042
0.312962 0.618411 0.135113
0.340051 0.618487 0.136284
0.368396 0.618569 0.137556
0.397931 0.618656 0.138926
0.428602 0.618747 0.140393
0.460357 0.618843 0.141957
0.493151 0.618942 0.143614
0.526943 0.619045 0.145362
0.561698 0.619149 0.147197
0.597380 0.619255 0.149117
0.633958 0.619361 0.151118
0.671405 0.619466 0.153195
0.709692 0.619570 0.155344
0.748795 0.619670 0.157561
0.788689 0.619766 0.159840
0.829350 0.619855 0.162177
0.870757 0.619937 0.164566
0.912887 0.620010 0.167002
0.121214 0.653080 0.128486
0.121691 0.653080 0.128498
0.123722 0.653082 0.128550
0.127787 0.653084 0.128654
0.134132 0.653089 0.128822
0.142856 0.653095 0.129059
0.153945 0.653102 0.129372
0.167316 0.653112 0.129766
0.182844 0.653123 0.130246
0.200388 0.653137 0.130815
0.219806 0.653152 0.131475
0.240964 0.653169 0.132230
0.263741 0.653187 0.133081
0.288028 0.653207 0.134029
0.313729 0.653227 0.135074
0.340761 0.653248 0.136218
0.369051 0.653270 0.137459
0.398533 0.653291 0.138796
0.429151 0.653311 0.140229
0.460854 0.653329 0.141756
0.493596 0.653346 0.143374
0.527337 0.653359 0.145080
0.562038 0.653369 0.146873
0.597666 0.653374 0.148747
0.634189 0.653373 0.150701
0.671578 0.653365 0.152729
0.709806 0.653349 0.154827
0.748846 0.653324 0.156991
0.788675 0.653287 0.159216
0.829268 0.653239 0.161497
0.870603 0.653176 0.163829
0.912658 0.653097 0.166206
0.122760 0.688479 0.128540
0.123234 0.688478 0.128552
0.125248 0.688477 0.128602
0.129282 0.688475 0.128704
0.135582 0.688472 0.128867
0.144247 0.688467 0.129098
0.155269 0.688461 0.129403
0.168567 0.688452 0.129788
0.184021 0.688442 0.130255
0.201490 0.688429 0.130809
0.220835 0.688414 0.131453
0.241923 0.688396 0.132189
0.264631 0.688374 0.133018
0.288853 0.688349 0.133942
0.314491 0.688320 0.134961
0.341462 0.688287 0.136076
0.369692 0.688248 0.137286
0.399116 0.688203 0.138590
0.429677 0.688152 0.139987
0.461323 0.688094 0.141475
0.494008 0.688028 0.143053
0.527690 0.687953 0.144716
0.562333 0.687868 0.146464
0.597901 0.687773 0.148291
0.634362 0.687665 0.150195
0.671688 0.687545 0.152172
0.709850 0.687409 0.154218
0.748821 0.687258 0.156327
0.788578 0.687090 0.158496
0.829095 0.686903 0.160719
0.870350 0.686695 0.162990
0.912321 0.686465 0.165306
0.124328 0.724068 0.128514
0.124797 0.724068 0.128525
0.126795 0.724064 0.128574
0.130797 0.724057 0.128673
0.137050 0.724047 0.128832
0.145655 0.724031 0.129057
0.156608 0.724010 0.129354
0.169832 0.723984 0.129728
0.185208 0.723952 0.130183
0.202599 0.723913 0.130722
0.221868 0.723868 0.131349
0.242881 0.723815 0.132065
0.265517 0.723754 0.132872
0.289668 0.723684 0.133771
0.315239 0.723605 0.134763
0.342144 0.723517 0.135848
0.370310 0.723418 0.137026
0.399671 0.723308 0.138295
0.430169 0.723186 0.139655
0.461752 0.723051 0.141104
0.494374 0.722903 0.142639
0.527993 0.722740 0.144259
0.562571 0.722561 0.145959
0.598073 0.722365 0.147738
0.634466 0.722151 0.149592
0.671721 0.721917 0.151516
0.709809 0.721663 0.153506
0.748704 0.721387 0.155559
0.788381 0.721086 0.157669
0.828815 0.720761 0.159831
0.869982 0.720408 0.162041
0.911860 0.720026 0.164293
0.125905 0.759765 0.128395
0.126371 0.759763 0.128406
0.128352 0.759758 0.128454
0.132322 0.759746 0.128550
0.138527 0.759728 0.128705
0.147071 0.759701 0.128923
0.157953 0.759667 0.129212
0.171099 0.759623 0.129575
0.186395 0.759569 0.130017
0.203706 0.759504 0.130541
0.222894 0.759428 0.131150
0.243828 0.759340 0.131846
0.266388 0.759240 0.132630
