i_love_nvidia/warm_vintage.cube
# Created with create_lut.py
# Configuration: {"brightness":1.05,"contrast":1.4,"saturation":0.9,"temperature":5000.0,"tint":0.1,"highlight_rolloff":0.8,"shadow_lift":0.03,"black_point":0.005,"highlight_warmth":1.1,"shadow_coolness":0.9,"midtone_contrast":1.3,"gamma":0.45}
TITLE "Custom LUT"
LUT_3D_SIZE 8
DOMAIN_MIN 0.000000 0.000000 0.000000
DOMAIN_MAX 0.903226 0.903226 0.903226
0.102923 0.113223 0.123611
0.117016 0.113664 0.124044
0.168782 0.115534 0.125879
0.252544 0.119260 0.129526
0.360059 0.125027 0.135143
0.486429 0.132858 0.142708
0.628788 0.142647 0.152057
0.785257 0.154195 0.162911
0.103211 0.128523 0.123735
0.117285 0.128927 0.124166
0.169004 0.130643 0.125995
0.252725 0.134070 0.129629
0.360213 0.139398 0.135226
0.486564 0.146669 0.142767
0.628905 0.155810 0.152084
0.785356 0.166658 0.162903
0.104432 0.184506 0.124245
0.118424 0.184814 0.124670
0.169942 0.186128 0.126471
0.253492 0.188765 0.130051
0.360863 0.192898 0.135567
0.487128 0.198598 0.143000
0.629393 0.205855 0.152187
0.785760 0.214582 0.162857
0.106848 0.274108 0.125186
0.120680 0.274323 0.125598
0.171801 0.275241 0.127345
0.255006 0.277088 0.130819
0.362134 0.279995 0.136174
0.488217 0.284027 0.143393
0.630317 0.289195 0.152322
0.786502 0.295455 0.162694
0.110536 0.386788 0.126434
0.124129 0.386926 0.126827
0.174642 0.387513 0.128492
0.257301 0.388694 0.131804
0.364029 0.390552 0.136912
0.489799 0.393127 0.143805
0.631607 0.396422 0.152334
0.787466 0.400401 0.162246
0.115411 0.515061 0.127693
0.128694 0.515131 0.128060
0.178397 0.515431 0.129616
0.260290 0.516032 0.132713
0.366427 0.516970 0.137492
0.491705 0.518253 0.143946
0.633037 0.519865 0.151937
0.788361 0.521759 0.161228
0.121214 0.653080 0.128486
0.134132 0.653089 0.128822
0.182844 0.653123 0.130246
0.263741 0.653187 0.133081
0.369051 0.653270 0.137459
0.493596 0.653346 0.143374
0.634189 0.653373 0.150701
0.788675 0.653287 0.159216
0.127482 0.795481 0.128172
0.140001 0.795430 0.128472
0.187572 0.795206 0.129746
0.267234 0.794746 0.132281
0.371432 0.793993 0.136198
0.494922 0.792885 0.141491
0.634405 0.791352 0.148044
0.787622 0.789305 0.155653
0.103476 0.113795 0.140741
0.117530 0.114234 0.141133
0.169198 0.116098 0.142793
0.252872 0.119811 0.146100
0.360327 0.125561 0.151213
0.486654 0.133369 0.158133
0.628981 0.143131 0.166728
0.785427 0.154651 0.176759
0.103764 0.129052 0.140823
0.117798 0.129455 0.141213
0.169419 0.131166 0.142868
0.253054 0.134583 0.146164
0.360481 0.139896 0.151260
0.486788 0.147148 0.158157
0.629098 0.156267 0.166725
0.785525 0.167091 0.176724
0.104981 0.184926 0.141154
0.118934 0.185234 0.141539
0.170355 0.186545 0.143170
0.253820 0.189177 0.146420
0.361130 0.193302 0.151445
0.487352 0.198992 0.158247
0.629586 0.206236 0.166697
0.785929 0.214948 0.176559
0.107390 0.274429 0.141743
0.121184 0.274644 0.142117
0.172211 0.275561 0.143702
0.255332 0.277405 0.146859
0.362400 0.280308 0.151742
0.488440 0.284334 0.158355
0.630509 0.289495 0.166571
0.786670 0.295747 0.176162
0.111067 0.387035 0.142456
0.124624 0.387172 0.142813
0.175048 0.387759 0.144327
0.257624 0.388938 0.147342
0.364293 0.390793 0.152008
0.490020 0.393365 0.158328
0.631797 0.396656 0.166182
0.787632 0.400630 0.175351
0.115927 0.515250 0.143006
0.129178 0.515320 0.143340
0.178796 0.515620 0.144758
0.260610 0.516219 0.147583
0.366688 0.517155 0.151956
0.491924 0.518437 0.157881
0.633224 0.520045 0.165246
0.788524 0.521936 0.173840
0.121712 0.653223 0.142943
0.134602 0.653231 0.143249
0.183236 0.653265 0.144549
0.264056 0.653328 0.147140
0.369308 0.653409 0.151151
0.493812 0.653484 0.156587
0.634372 0.653509 0.163341
0.788833 0.653420 0.171216
0.127962 0.795583 0.141657
0.140455 0.795531 0.141931
0.187954 0.795308 0.143095
0.267542 0.794847 0.145415
0.371684 0.794092 0.149006
0.495132 0.792984 0.153870
0.634583 0.791448 0.159908
0.787774 0.789399 0.166935
0.105826 0.116223 0.203505
0.119714 0.116655 0.203786
0.170967 0.118492 0.204981
0.254275 0.122153 0.207370
0.361470 0.127826 0.211087
0.487616 0.135537 0.216162
0.629810 0.145188 0.222526
0.786153 0.156588 0.230024
0.106110 0.131300 0.203456
0.119979 0.131698 0.203736
0.171187 0.133387 0.204927
0.254455 0.136764 0.207309
0.361624 0.142015 0.211015
0.487750 0.149188 0.216074
0.629926 0.158214 0.222417
0.786250 0.168936 0.229890
0.107311 0.186717 0.203236
0.121103 0.187023 0.203512
0.172117 0.188323 0.204687
0.255218 0.190934 0.207037
0.362270 0.195026 0.210693
0.488311 0.200672 0.215684
0.630412 0.207862 0.221941
0.786651 0.216511 0.229310
0.109689 0.275799 0.202726
0.123329 0.276013 0.202995
0.173961 0.276924 0.204139
0.256724 0.278758 0.206425
0.363536 0.281644 0.209982
0.489394 0.285647 0.214835
0.631330 0.290778 0.220919
0.787386 0.296994 0.228079
0.113319 0.388087 0.201745
0.126731 0.388224 0.202002
0.176778 0.388807 0.203096
0.259006 0.389980 0.205283
0.365421 0.391825 0.208685
0.490967 0.394383 0.213325
0.632610 0.397655 0.219137
0.788339 0.401607 0.225971
0.118119 0.516058 0.200006
0.131236 0.516127 0.200248
0.180500 0.516425 0.201274
0.261976 0.517020 0.203325
0.367804 0.517949 0.206514
0.492860 0.519221 0.210861
0.634025 0.520816 0.216300
0.789218 0.522691 0.222684
0.123832 0.653831 0.197107
0.136601 0.653839 0.197329
0.184904 0.653871 0.198269
0.265401 0.653931 0.200149
0.370408 0.654007 0.203069
0.494732 0.654074 0.207045
0.635156 0.654089 0.212011
0.789508 0.653988 0.217824
0.130001 0.796019 0.192516
0.142386 0.795967 0.192714
0.189580 0.795741 0.193553
0.268859 0.795278 0.195228
0.372761 0.794519 0.197828
0.496031 0.793404 0.201361
0.635344 0.791860 0.205761
0.788425 0.789800 0.210888
0.110507 0.121056 0.304673
0.124079 0.121476 0.304840
0.174528 0.123261 0.305550
0.257110 0.126823 0.306970
0.363786 0.132349 0.309180
0.489565 0.139874 0.312196
0.631490 0.149309 0.315968
0.787624 0.160475 0.320390
0.110784 0.135790 0.304452
0.124339 0.136178 0.304618
0.174745 0.137827 0.305325
0.257289 0.141124 0.306740
0.363938 0.146256 0.308942
0.489698 0.153275 0.311946
0.631605 0.162119 0.315705
0.787720 0.172640 0.320108
0.111955 0.190319 0.303496
0.125439 0.190620 0.303660
0.175663 0.191899 0.304356
0.258045 0.194468 0.305749
0.364580 0.198495 0.307917
0.490255 0.204054 0.310872
0.632086 0.211136 0.314568
0.788116 0.219660 0.318896
0.114273 0.278566 0.301511
0.127618 0.278777 0.301670
0.177483 0.279677 0.302345
0.259538 0.281490 0.303694
0.365836 0.284341 0.305791
0.491329 0.288298 0.308650
0.632994 0.293369 0.312221
0.788840 0.299513 0.316394
0.117814 0.390215 0.298220
0.130949 0.390351 0.298370
0.180262 0.390927 0.299011
0.261798 0.392088 0.300290
0.367706 0.393913 0.302279
0.492887 0.396442 0.304985
0.634258 0.399677 0.308358
0.789774 0.403583 0.312289
0.122498 0.517693 0.293299
0.135359 0.517761 0.293438
0.183930 0.518054 0.294031
0.264737 0.518641 0.295214
0.370065 0.519556 0.297051
0.494757 0.520808 0.299545
0.635648 0.522378 0.302643
0.790625 0.524220 0.306238
0.128072 0.655062 0.286353
0.140609 0.655070 0.286478
0.188266 0.655099 0.287010
0.268119 0.655152 0.288070
0.372635 0.655217 0.289712
0.496597 0.655269 0.291934
0.636746 0.655263 0.294680
0.790878 0.655137 0.297842
0.134085 0.796900 0.276905
0.146260 0.796847 0.277012
0.192857 0.796620 0.277470
0.271521 0.796150 0.278381
0.374943 0.795382 0.279786
0.497852 0.794254 0.281678
0.636888 0.792693 0.283996
0.789743 0.790612 0.286632
0.117760 0.128538 0.433888
0.130878 0.128941 0.433953
0.180135 0.130651 0.434226
0.261605 0.134069 0.434768
0.367470 0.139380 0.435593
0.492671 0.146630 0.436682
0.634169 0.155745 0.437974
0.789972 0.166562 0.439370
0.118026 0.142776 0.433471
0.131129 0.143149 0.433535
0.180348 0.144738 0.433807
0.261781 0.147917 0.434345
0.367621 0.152873 0.435164
0.492802 0.159663 0.436244
0.634282 0.168235 0.437526
0.790066 0.178452 0.438908
0.119154 0.195981 0.431680
0.132194 0.196274 0.431743
0.181248 0.197521 0.432007
0.262527 0.200026 0.432528
0.368255 0.203954 0.433322
0.493352 0.209379 0.434367
0.634755 0.216296 0.435602
0.790452 0.224627 0.436926
0.121387 0.282944 0.428013
0.134305 0.283151 0.428072
0.183030 0.284035 0.428320
0.263999 0.285813 0.428809
0.369495 0.288612 0.429552
0.494411 0.292495 0.430525
0.635647 0.297473 0.431666
0.791158 0.303503 0.432874
0.124799 0.393594 0.422067
0.137531 0.393727 0.422119
0.185750 0.394294 0.422342
0.266225 0.395434 0.422780
0.371339 0.397227 0.423442
0.495945 0.399711 0.424301
0.636885 0.402888 0.425294
0.792062 0.406722 0.426319
0.129313 0.520292 0.413444
0.141801 0.520359 0.413489
0.189337 0.520645 0.413676
0.269115 0.521218 0.414043
0.373661 0.522111 0.414592
0.497778 0.523331 0.415293
0.638237 0.524860 0.416079
0.792869 0.526651 0.416849
0.134684 0.657022 0.401723
0.146878 0.657028 0.401757
0.193567 0.657052 0.401899
0.272429 0.657094 0.402174
0.376178 0.657142 0.402577
0.499568 0.657169 0.403073
0.639280 0.657131 0.403593
0.793061 0.656964 0.404032
0.140464 0.798302 0.386437
0.152329 0.798248 0.386457
0.198026 0.798016 0.386544
0.275743 0.797538 0.386707
0.378413 0.796755 0.386932
0.500753 0.795606 0.387177
0.639348 0.794018 0.387371
0.791845 0.791902 0.387405
0.127636 0.138710 0.584771
0.140196 0.139091 0.584741
0.187929 0.140709 0.584610
0.267913 0.143947 0.584333
0.372665 0.148989 0.583861
0.497061 0.155890 0.583130
0.637960 0.164594 0.582052
0.793295 0.174957 0.580516
0.127890 0.152332 0.584139
0.140437 0.152688 0.584109
0.188136 0.154200 0.583976
0.268086 0.157230 0.583697
0.372813 0.161961 0.583220
0.497190 0.168454 0.582483
0.638071 0.176672 0.581397
0.793386 0.186492 0.579850
0.128964 0.203833 0.581432
0.141458 0.204116 0.581400
0.189011 0.205320 0.581262
0.268818 0.207739 0.580970
0.373437 0.211535 0.580474
0.497730 0.216781 0.579709
0.638532 0.223476 0.578588
0.793760 0.231547 0.576997
0.131092 0.289071 0.575912
0.143482 0.289272 0.575877
0.190744 0.290133 0.575727
0.270260 0.291865 0.575410
0.374655 0.294591 0.574876
0.498768 0.298373 0.574056
0.639402 0.303222 0.572863
0.794440 0.309096 0.571183
0.134345 0.398344 0.567030
0.146575 0.398474 0.566990
0.193386 0.399027 0.566821
0.272439 0.400139 0.566466
0.376463 0.401887 0.565869
0.500267 0.404308 0.564963
0.640602 0.407404 0.563657
0.795301 0.411136 0.561835
0.138646 0.523955 0.554292
0.150665 0.524020 0.554246
0.196862 0.524296 0.554050
0.275260 0.524849 0.553641
0.378731 0.525710 0.552958
0.502049 0.526886 0.551931
0.641898 0.528357 0.550466
0.796045 0.530076 0.548448
0.143756 0.659784 0.537220
0.155519 0.659788 0.537166
0.200949 0.659804 0.536935
0.278480 0.659831 0.536456
0.381172 0.659855 0.535662
0.503765 0.659847 0.534478
0.642863 0.659764 0.532809
0.796150 0.659540 0.530536
0.149237 0.800278 0.515330
0.160707 0.800222 0.515267
0.205230 0.799984 0.514993
0.281670 0.799492 0.514428
0.383304 0.798689 0.513498
0.504851 0.797511 0.512121
0.642826 0.795885 0.510201
0.794817 0.793720 0.507617
0.140062 0.151474 0.753319
0.152001 0.151830 0.753197
0.197966 0.153345 0.752674
0.276131 0.156379 0.751604
0.379476 0.161114 0.749871
0.502834 0.167613 0.747362
0.642952 0.175837 0.743957
0.797674 0.185663 0.739520
0.140301 0.164405 0.752454
0.152230 0.164740 0.752332
0.198165 0.166165 0.751808
0.276300 0.169022 0.750736
0.379621 0.173490 0.748999
0.502960 0.179635 0.746485
0.643060 0.187433 0.743074
0.797761 0.196776 0.738629
0.141316 0.213910 0.748753
0.153202 0.214181 0.748629
0.199011 0.215332 0.748101
0.277014 0.217646 0.747019
0.380231 0.221280 0.745268
0.503486 0.226306 0.742734
0.643507 0.232726 0.739295
0.798118 0.240474 0.734816
0.143327 0.297023 0.741222
0.155126 0.297218 0.741097
0.200682 0.298049 0.740559
0.278418 0.299722 0.739459
0.381420 0.302355 0.737677
0.504497 0.306009 0.735101
0.644346 0.310693 0.731607
0.798763 0.316368 0.727060
0.146399 0.404546 0.729147
0.158065 0.404671 0.729018
0.203227 0.405206 0.728465
0.280536 0.406281 0.727335
0.383179 0.407971 0.725507
0.505949 0.410311 0.722864
0.645495 0.413300 0.719284
0.799568 0.416902 0.714629
0.150456 0.528749 0.711919
0.161944 0.528811 0.711785
0.206568 0.529074 0.711212
0.283268 0.529602 0.710041
0.385375 0.530422 0.708147
0.507662 0.531540 0.705412
0.646718 0.532935 0.701710
0.800228 0.534558 0.696904
0.155265 0.663402 0.688986
0.166534 0.663404 0.688846
0.210475 0.663411 0.688247
0.286366 0.663417 0.687022
0.387716 0.663409 0.685043
0.509281 0.663356 0.682188
0.647579 0.663213 0.678330
0.800217 0.662914 0.673330
0.160392 0.802864 0.659825
0.171407 0.802807 0.659678
0.214532 0.802560 0.659046
0.289394 0.802051 0.657756
0.389713 0.801221 0.655673
0.510235 0.800005 0.652672
0.647401 0.798327 0.648623
0.798729 0.796098 0.643385
0.154891 0.166648 0.936664
0.166187 0.166978 0.936450
0.210232 0.168383 0.935537
0.286309 0.171200 0.933677
0.387973 0.175608 0.930685
0.510065 0.181672 0.926397
0.649216 0.189371 0.920656
0.803172 0.198599 0.913297
0.155116 0.178854 0.935549
0.166404 0.179167 0.935336
0.210424 0.180497 0.934422
0.286473 0.183166 0.932560
0.388114 0.187346 0.929565
0.510186 0.193109 0.925274
0.649319 0.200439 0.919528
0.803254 0.209244 0.912163
0.156069 0.226171 0.930781
0.167322 0.226427 0.930567
0.211234 0.227518 0.929649
0.287164 0.229712 0.927780
0.388706 0.233159 0.924774
0.510695 0.237931 0.920468
0.649747 0.244032 0.914701
0.803590 0.251403 0.907311
0.157956 0.306822 0.921090
0.169138 0.307009 0.920874
0.212835 0.307805 0.919950
0.288523 0.309407 0.918067
0.389858 0.311929 0.915038
0.511670 0.315429 0.910700
0.650547 0.319914 0.904892
0.804190 0.325347 0.897451
0.160835 0.412241 0.905581
0.171909 0.412362 0.905362
0.215268 0.412874 0.904427
0.290566 0.413904 0.902521
0.391558 0.415522 0.899458
0.513063 0.417762 0.895070
0.651633 0.420621 0.889197
0.804922 0.424061 0.881675
0.164632 0.534718 0.883516
0.175557 0.534776 0.883294
0.218449 0.535024 0.882343
0.293188 0.535519 0.880407
0.393663 0.536288 0.877294
0.514688 0.537334 0.872837
0.652760 0.538634 0.866873
0.805476 0.540139 0.859239
0.169111 0.667912 0.854253
0.179851 0.667911 0.854027
0.222146 0.667906 0.853056
0.296135 0.667887 0.851080
0.395877 0.667838 0.847904
0.516183 0.667728 0.843358
0.653489 0.667510 0.837278
0.805317 0.667116 0.829499
0.173844 0.806084 0.817218
0.184366 0.806024 0.816986
0.225935 0.805767 0.815992
0.298963 0.805237 0.813967
0.397702 0.804373 0.810714
0.516969 0.803108 0.806060
0.653133 0.801366 0.799840
0.803631 0.799055 0.791887
